Packages/com.unity.postprocessing/PostProcessing/Textures/Cubes/sRGB to Unity Log r1.cube
TITLE "sRGB to Unity Log r1"
LUT_3D_SIZE 5
DOMAIN_MIN 0 0 0
DOMAIN_MAX 1 1 1
0.092819 0.092819 0.092819
0.2686816 0.092819 0.092819
0.4085988 0.092819 0.092819
0.5007803 0.092819 0.092819
0.5687816 0.092819 0.092819
0.092819 0.2686816 0.092819
0.2686816 0.2686816 0.092819
0.4085988 0.2686816 0.092819
0.5007803 0.2686816 0.092819
0.5687816 0.2686816 0.092819
0.092819 0.4085988 0.092819
0.2686816 0.4085988 0.092819
0.4085988 0.4085988 0.092819
0.5007803 0.4085988 0.092819
0.5687816 0.4085988 0.092819
0.092819 0.5007803 0.092819
0.2686816 0.5007803 0.092819
0.4085988 0.5007803 0.092819
0.5007803 0.5007803 0.092819
0.5687816 0.5007803 0.092819
0.092819 0.5687816 0.092819
0.2686816 0.5687816 0.092819
0.4085988 0.5687816 0.092819
0.5007803 0.5687816 0.092819
0.5687816 0.5687816 0.092819
0.092819 0.092819 0.2686816
0.2686816 0.092819 0.2686816
0.4085988 0.092819 0.2686816
0.5007803 0.092819 0.2686816
0.5687816 0.092819 0.2686816
0.092819 0.2686816 0.2686816
0.2686816 0.2686816 0.2686816
0.4085988 0.2686816 0.2686816
0.5007803 0.2686816 0.2686816
0.5687816 0.2686816 0.2686816
0.092819 0.4085988 0.2686816
0.2686816 0.4085988 0.2686816
0.4085988 0.4085988 0.2686816
0.5007803 0.4085988 0.2686816
0.5687816 0.4085988 0.2686816
0.092819 0.5007803 0.2686816
0.2686816 0.5007803 0.2686816
0.4085988 0.5007803 0.2686816
0.5007803 0.5007803 0.2686816
0.5687816 0.5007803 0.2686816
0.092819 0.5687816 0.2686816
0.2686816 0.5687816 0.2686816
0.4085988 0.5687816 0.2686816
0.5007803 0.5687816 0.2686816
0.5687816 0.5687816 0.2686816
0.092819 0.092819 0.4085988
0.2686816 0.092819 0.4085988
0.4085988 0.092819 0.4085988
0.5007803 0.092819 0.4085988
0.5687816 0.092819 0.4085988
0.092819 0.2686816 0.4085988
0.2686816 0.2686816 0.4085988
0.4085988 0.2686816 0.4085988
0.5007803 0.2686816 0.4085988
0.5687816 0.2686816 0.4085988
0.092819 0.4085988 0.4085988
0.2686816 0.4085988 0.4085988
0.4085988 0.4085988 0.4085988
0.5007803 0.4085988 0.4085988
0.5687816 0.4085988 0.4085988
0.092819 0.5007803 0.4085988
0.2686816 0.5007803 0.4085988
0.4085988 0.5007803 0.4085988
0.5007803 0.5007803 0.4085988
0.5687816 0.5007803 0.4085988
0.092819 0.5687816 0.4085988
0.2686816 0.5687816 0.4085988
0.4085988 0.5687816 0.4085988
0.5007803 0.5687816 0.4085988
0.5687816 0.5687816 0.4085988
0.092819 0.092819 0.5007803
0.2686816 0.092819 0.5007803
0.4085988 0.092819 0.5007803
0.5007803 0.092819 0.5007803
0.5687816 0.092819 0.5007803
0.092819 0.2686816 0.5007803
0.2686816 0.2686816 0.5007803
0.4085988 0.2686816 0.5007803
0.5007803 0.2686816 0.5007803
0.5687816 0.2686816 0.5007803
0.092819 0.4085988 0.5007803
0.2686816 0.4085988 0.5007803
0.4085988 0.4085988 0.5007803
0.5007803 0.4085988 0.5007803
0.5687816 0.4085988 0.5007803
0.092819 0.5007803 0.5007803
0.2686816 0.5007803 0.5007803
0.4085988 0.5007803 0.5007803
0.5007803 0.5007803 0.5007803
0.5687816 0.5007803 0.5007803
0.092819 0.5687816 0.5007803
0.2686816 0.5687816 0.5007803
0.4085988 0.5687816 0.5007803
0.5007803 0.5687816 0.5007803
0.5687816 0.5687816 0.5007803
0.092819 0.092819 0.5687816
0.2686816 0.092819 0.5687816
0.4085988 0.092819 0.5687816
0.5007803 0.092819 0.5687816
0.5687816 0.092819 0.5687816
0.092819 0.2686816 0.5687816
0.2686816 0.2686816 0.5687816
0.4085988 0.2686816 0.5687816
0.5007803 0.2686816 0.5687816
0.5687816 0.2686816 0.5687816
0.092819 0.4085988 0.5687816
0.2686816 0.4085988 0.5687816
0.4085988 0.4085988 0.5687816
0.5007803 0.4085988 0.5687816
0.5687816 0.4085988 0.5687816
0.092819 0.5007803 0.5687816
0.2686816 0.5007803 0.5687816
0.4085988 0.5007803 0.5687816
0.5007803 0.5007803 0.5687816
0.5687816 0.5007803 0.5687816
0.092819 0.5687816 0.5687816
0.2686816 0.5687816 0.5687816
0.4085988 0.5687816 0.5687816
0.5007803 0.5687816 0.5687816
0.5687816 0.5687816 0.5687816
