Packages/com.unity.postprocessing/PostProcessing/Textures/Cubes/sRGB to Unity Log r1.cube
TITLE "sRGB to Unity Log r1"
LUT_3D_SIZE 9
DOMAIN_MIN 0 0 0
DOMAIN_MAX 1 1 1
0.092819 0.092819 0.092819
0.1678172 0.092819 0.092819
0.2686816 0.092819 0.092819
0.3470774 0.092819 0.092819
0.4085988 0.092819 0.092819
0.4586928 0.092819 0.092819
0.5007803 0.092819 0.092819
0.5370079 0.092819 0.092819
0.5687816 0.092819 0.092819
0.092819 0.1678172 0.092819
0.1678172 0.1678172 0.092819
0.2686816 0.1678172 0.092819
0.3470774 0.1678172 0.092819
0.4085988 0.1678172 0.092819
0.4586928 0.1678172 0.092819
0.5007803 0.1678172 0.092819
0.5370079 0.1678172 0.092819
0.5687816 0.1678172 0.092819
0.092819 0.2686816 0.092819
0.1678172 0.2686816 0.092819
0.2686816 0.2686816 0.092819
0.3470774 0.2686816 0.092819
0.4085988 0.2686816 0.092819
0.4586928 0.2686816 0.092819
0.5007803 0.2686816 0.092819
0.5370079 0.2686816 0.092819
0.5687816 0.2686816 0.092819
0.092819 0.3470774 0.092819
0.1678172 0.3470774 0.092819
0.2686816 0.3470774 0.092819
0.3470774 0.3470774 0.092819
0.4085988 0.3470774 0.092819
0.4586928 0.3470774 0.092819
0.5007803 0.3470774 0.092819
0.5370079 0.3470774 0.092819
0.5687816 0.3470774 0.092819
0.092819 0.4085988 0.092819
0.1678172 0.4085988 0.092819
0.2686816 0.4085988 0.092819
0.3470774 0.4085988 0.092819
0.4085988 0.4085988 0.092819
0.4586928 0.4085988 0.092819
0.5007803 0.4085988 0.092819
0.5370079 0.4085988 0.092819
0.5687816 0.4085988 0.092819
0.092819 0.4586928 0.092819
0.1678172 0.4586928 0.092819
0.2686816 0.4586928 0.092819
0.3470774 0.4586928 0.092819
0.4085988 0.4586928 0.092819
0.4586928 0.4586928 0.092819
0.5007803 0.4586928 0.092819
0.5370079 0.4586928 0.092819
0.5687816 0.4586928 0.092819
0.092819 0.5007803 0.092819
0.1678172 0.5007803 0.092819
0.2686816 0.5007803 0.092819
0.3470774 0.5007803 0.092819
0.4085988 0.5007803 0.092819
0.4586928 0.5007803 0.092819
0.5007803 0.5007803 0.092819
0.5370079 0.5007803 0.092819
0.5687816 0.5007803 0.092819
0.092819 0.5370079 0.092819
0.1678172 0.5370079 0.092819
0.2686816 0.5370079 0.092819
0.3470774 0.5370079 0.092819
0.4085988 0.5370079 0.092819
0.4586928 0.5370079 0.092819
0.5007803 0.5370079 0.092819
0.5370079 0.5370079 0.092819
0.5687816 0.5370079 0.092819
0.092819 0.5687816 0.092819
0.1678172 0.5687816 0.092819
0.2686816 0.5687816 0.092819
0.3470774 0.5687816 0.092819
0.4085988 0.5687816 0.092819
0.4586928 0.5687816 0.092819
0.5007803 0.5687816 0.092819
0.5370079 0.5687816 0.092819
0.5687816 0.5687816 0.092819
0.092819 0.092819 0.1678172
0.1678172 0.092819 0.1678172
0.2686816 0.092819 0.1678172
0.3470774 0.092819 0.1678172
0.4085988 0.092819 0.1678172
0.4586928 0.092819 0.1678172
0.5007803 0.092819 0.1678172
0.5370079 0.092819 0.1678172
0.5687816 0.092819 0.1678172
0.092819 0.1678172 0.1678172
0.1678172 0.1678172 0.1678172
0.2686816 0.1678172 0.1678172
0.3470774 0.1678172 0.1678172
0.4085988 0.1678172 0.1678172
0.4586928 0.1678172 0.1678172
0.5007803 0.1678172 0.1678172
0.5370079 0.1678172 0.1678172
0.5687816 0.1678172 0.1678172
0.092819 0.2686816 0.1678172
0.1678172 0.2686816 0.1678172
0.2686816 0.2686816 0.1678172
0.3470774 0.2686816 0.1678172
0.4085988 0.2686816 0.1678172
0.4586928 0.2686816 0.1678172
0.5007803 0.2686816 0.1678172
0.5370079 0.2686816 0.1678172
0.5687816 0.2686816 0.1678172
0.092819 0.3470774 0.1678172
0.1678172 0.3470774 0.1678172
0.2686816 0.3470774 0.1678172
0.3470774 0.3470774 0.1678172
0.4085988 0.3470774 0.1678172
0.4586928 0.3470774 0.1678172
0.5007803 0.3470774 0.1678172
0.5370079 0.3470774 0.1678172
0.5687816 0.3470774 0.1678172
0.092819 0.4085988 0.1678172
0.1678172 0.4085988 0.1678172
0.2686816 0.4085988 0.1678172
0.3470774 0.4085988 0.1678172
0.4085988 0.4085988 0.1678172
0.4586928 0.4085988 0.1678172
0.5007803 0.4085988 0.1678172
0.5370079 0.4085988 0.1678172
0.5687816 0.4085988 0.1678172
0.092819 0.4586928 0.1678172
0.1678172 0.4586928 0.1678172
0.2686816 0.4586928 0.1678172
0.3470774 0.4586928 0.1678172
0.4085988 0.4586928 0.1678172
0.4586928 0.4586928 0.1678172
0.5007803 0.4586928 0.1678172
0.5370079 0.4586928 0.1678172
0.5687816 0.4586928 0.1678172
0.092819 0.5007803 0.1678172
0.1678172 0.5007803 0.1678172
0.2686816 0.5007803 0.1678172
0.3470774 0.5007803 0.1678172
0.4085988 0.5007803 0.1678172
0.4586928 0.5007803 0.1678172
0.5007803 0.5007803 0.1678172
0.5370079 0.5007803 0.1678172
0.5687816 0.5007803 0.1678172
0.092819 0.5370079 0.1678172
0.1678172 0.5370079 0.1678172
0.2686816 0.5370079 0.1678172
0.3470774 0.5370079 0.1678172
0.4085988 0.5370079 0.1678172
0.4586928 0.5370079 0.1678172
0.5007803 0.5370079 0.1678172
0.5370079 0.5370079 0.1678172
0.5687816 0.5370079 0.1678172
0.092819 0.5687816 0.1678172
0.1678172 0.5687816 0.1678172
0.2686816 0.5687816 0.1678172
0.3470774 0.5687816 0.1678172
0.4085988 0.5687816 0.1678172
0.4586928 0.5687816 0.1678172
0.5007803 0.5687816 0.1678172
0.5370079 0.5687816 0.1678172
0.5687816 0.5687816 0.1678172
0.092819 0.092819 0.2686816
0.1678172 0.092819 0.2686816
0.2686816 0.092819 0.2686816
0.3470774 0.092819 0.2686816
0.4085988 0.092819 0.2686816
0.4586928 0.092819 0.2686816
0.5007803 0.092819 0.2686816
0.5370079 0.092819 0.2686816
0.5687816 0.092819 0.2686816
0.092819 0.1678172 0.2686816
0.1678172 0.1678172 0.2686816
0.2686816 0.1678172 0.2686816
0.3470774 0.1678172 0.2686816
0.4085988 0.1678172 0.2686816
0.4586928 0.1678172 0.2686816
0.5007803 0.1678172 0.2686816
0.5370079 0.1678172 0.2686816
0.5687816 0.1678172 0.2686816
0.092819 0.2686816 0.2686816
0.1678172 0.2686816 0.2686816
0.2686816 0.2686816 0.2686816
0.3470774 0.2686816 0.2686816
0.4085988 0.2686816 0.2686816
0.4586928 0.2686816 0.2686816
0.5007803 0.2686816 0.2686816
0.5370079 0.2686816 0.2686816
0.5687816 0.2686816 0.2686816
0.092819 0.3470774 0.2686816
0.1678172 0.3470774 0.2686816
0.2686816 0.3470774 0.2686816
0.3470774 0.3470774 0.2686816
0.4085988 0.3470774 0.2686816
0.4586928 0.3470774 0.2686816
0.5007803 0.3470774 0.2686816
0.5370079 0.3470774 0.2686816
0.5687816 0.3470774 0.2686816
0.092819 0.4085988 0.2686816
0.1678172 0.4085988 0.2686816
0.2686816 0.4085988 0.2686816
0.3470774 0.4085988 0.2686816
0.4085988 0.4085988 0.2686816
0.4586928 0.4085988 0.2686816
0.5007803 0.4085988 0.2686816
0.5370079 0.4085988 0.2686816
0.5687816 0.4085988 0.2686816
0.092819 0.4586928 0.2686816
0.1678172 0.4586928 0.2686816
0.2686816 0.4586928 0.2686816
0.3470774 0.4586928 0.2686816
0.4085988 0.4586928 0.2686816
0.4586928 0.4586928 0.2686816
0.5007803 0.4586928 0.2686816
0.5370079 0.4586928 0.2686816
0.5687816 0.4586928 0.2686816
0.092819 0.5007803 0.2686816
0.1678172 0.5007803 0.2686816
0.2686816 0.5007803 0.2686816
0.3470774 0.5007803 0.2686816
0.4085988 0.5007803 0.2686816
0.4586928 0.5007803 0.2686816
0.5007803 0.5007803 0.2686816
0.5370079 0.5007803 0.2686816
0.5687816 0.5007803 0.2686816
0.092819 0.5370079 0.2686816
0.1678172 0.5370079 0.2686816
0.2686816 0.5370079 0.2686816
0.3470774 0.5370079 0.2686816
0.4085988 0.5370079 0.2686816
0.4586928 0.5370079 0.2686816
0.5007803 0.5370079 0.2686816
0.5370079 0.5370079 0.2686816
0.5687816 0.5370079 0.2686816
0.092819 0.5687816 0.2686816
0.1678172 0.5687816 0.2686816
0.2686816 0.5687816 0.2686816
0.3470774 0.5687816 0.2686816
0.4085988 0.5687816 0.2686816
0.4586928 0.5687816 0.2686816
0.5007803 0.5687816 0.2686816
0.5370079 0.5687816 0.2686816
0.5687816 0.5687816 0.2686816
0.092819 0.092819 0.3470774
0.1678172 0.092819 0.3470774
0.2686816 0.092819 0.3470774
0.3470774 0.092819 0.3470774
0.4085988 0.092819 0.3470774
0.4586928 0.092819 0.3470774
0.5007803 0.092819 0.3470774
0.5370079 0.092819 0.3470774
0.5687816 0.092819 0.3470774
0.092819 0.1678172 0.3470774
0.1678172 0.1678172 0.3470774
0.2686816 0.1678172 0.3470774
0.3470774 0.1678172 0.3470774
0.4085988 0.1678172 0.3470774
0.4586928 0.1678172 0.3470774
0.5007803 0.1678172 0.3470774
0.5370079 0.1678172 0.3470774
0.5687816 0.1678172 0.3470774
0.092819 0.2686816 0.3470774
0.1678172 0.2686816 0.3470774
0.2686816 0.2686816 0.3470774
0.3470774 0.2686816 0.3470774
0.4085988 0.2686816 0.3470774
0.4586928 0.2686816 0.3470774
0.5007803 0.2686816 0.3470774
0.5370079 0.2686816 0.3470774
0.5687816 0.2686816 0.3470774
0.092819 0.3470774 0.3470774
0.1678172 0.3470774 0.3470774
0.2686816 0.3470774 0.3470774
0.3470774 0.3470774 0.3470774
0.4085988 0.3470774 0.3470774
0.4586928 0.3470774 0.3470774
0.5007803 0.3470774 0.3470774
0.5370079 0.3470774 0.3470774
0.5687816 0.3470774 0.3470774
0.092819 0.4085988 0.3470774
0.1678172 0.4085988 0.3470774
0.2686816 0.4085988 0.3470774
0.3470774 0.4085988 0.3470774
0.4085988 0.4085988 0.3470774
0.4586928 0.4085988 0.3470774
0.5007803 0.4085988 0.3470774
0.5370079 0.4085988 0.3470774
0.5687816 0.4085988 0.3470774
0.092819 0.4586928 0.3470774
0.1678172 0.4586928 0.3470774
0.2686816 0.4586928 0.3470774
0.3470774 0.4586928 0.3470774
0.4085988 0.4586928 0.3470774
0.4586928 0.4586928 0.3470774
0.5007803 0.4586928 0.3470774
0.5370079 0.4586928 0.3470774
0.5687816 0.4586928 0.3470774
0.092819 0.5007803 0.3470774
0.1678172 0.5007803 0.3470774
0.2686816 0.5007803 0.3470774
0.3470774 0.5007803 0.3470774
0.4085988 0.5007803 0.3470774
0.4586928 0.5007803 0.3470774
0.5007803 0.5007803 0.3470774
0.5370079 0.5007803 0.3470774
0.5687816 0.5007803 0.3470774
0.092819 0.5370079 0.3470774
0.1678172 0.5370079 0.3470774
0.2686816 0.5370079 0.3470774
0.3470774 0.5370079 0.3470774
0.4085988 0.5370079 0.3470774
0.4586928 0.5370079 0.3470774
0.5007803 0.5370079 0.3470774
0.5370079 0.5370079 0.3470774
0.5687816 0.5370079 0.3470774
0.092819 0.5687816 0.3470774
0.1678172 0.5687816 0.3470774
0.2686816 0.5687816 0.3470774
0.3470774 0.5687816 0.3470774
0.4085988 0.5687816 0.3470774
0.4586928 0.5687816 0.3470774
0.5007803 0.5687816 0.3470774
0.5370079 0.5687816 0.3470774
0.5687816 0.5687816 0.3470774
0.092819 0.092819 0.4085988
0.1678172 0.092819 0.4085988
0.2686816 0.092819 0.4085988
0.3470774 0.092819 0.4085988
0.4085988 0.092819 0.4085988
0.4586928 0.092819 0.4085988
0.5007803 0.092819 0.4085988
0.5370079 0.092819 0.4085988
0.5687816 0.092819 0.4085988
0.092819 0.1678172 0.4085988
0.1678172 0.1678172 0.4085988
0.2686816 0.1678172 0.4085988
0.3470774 0.1678172 0.4085988
0.4085988 0.1678172 0.4085988
0.4586928 0.1678172 0.4085988
0.5007803 0.1678172 0.4085988
0.5370079 0.1678172 0.4085988
0.5687816 0.1678172 0.4085988
0.092819 0.2686816 0.4085988
0.1678172 0.2686816 0.4085988
0.2686816 0.2686816 0.4085988
0.3470774 0.2686816 0.4085988
0.4085988 0.2686816 0.4085988
0.4586928 0.2686816 0.4085988
0.5007803 0.2686816 0.4085988
0.5370079 0.2686816 0.4085988
0.5687816 0.2686816 0.4085988
0.092819 0.3470774 0.4085988
0.1678172 0.3470774 0.4085988
0.2686816 0.3470774 0.4085988
0.3470774 0.3470774 0.4085988
0.4085988 0.3470774 0.4085988
0.4586928 0.3470774 0.4085988
0.5007803 0.3470774 0.4085988
0.5370079 0.3470774 0.4085988
0.5687816 0.3470774 0.4085988
0.092819 0.4085988 0.4085988
0.1678172 0.4085988 0.4085988
0.2686816 0.4085988 0.4085988
0.3470774 0.4085988 0.4085988
0.4085988 0.4085988 0.4085988
0.4586928 0.4085988 0.4085988
0.5007803 0.4085988 0.4085988
0.5370079 0.4085988 0.4085988
0.5687816 0.4085988 0.4085988
0.092819 0.4586928 0.4085988
0.1678172 0.4586928 0.4085988
0.2686816 0.4586928 0.4085988
0.3470774 0.4586928 0.4085988
0.4085988 0.4586928 0.4085988
0.4586928 0.4586928 0.4085988
0.5007803 0.4586928 0.4085988
0.5370079 0.4586928 0.4085988
0.5687816 0.4586928 0.4085988
0.092819 0.5007803 0.4085988
0.1678172 0.5007803 0.4085988
0.2686816 0.5007803 0.4085988
0.3470774 0.5007803 0.4085988
0.4085988 0.5007803 0.4085988
0.4586928 0.5007803 0.4085988
0.5007803 0.5007803 0.4085988
0.5370079 0.5007803 0.4085988
0.5687816 0.5007803 0.4085988
0.092819 0.5370079 0.4085988
0.1678172 0.5370079 0.4085988
0.2686816 0.5370079 0.4085988
0.3470774 0.5370079 0.4085988
0.4085988 0.5370079 0.4085988
0.4586928 0.5370079 0.4085988
0.5007803 0.5370079 0.4085988
0.5370079 0.5370079 0.4085988
0.5687816 0.5370079 0.4085988
0.092819 0.5687816 0.4085988
0.1678172 0.5687816 0.4085988
0.2686816 0.5687816 0.4085988
0.3470774 0.5687816 0.4085988
0.4085988 0.5687816 0.4085988
0.4586928 0.5687816 0.4085988
0.5007803 0.5687816 0.4085988
0.5370079 0.5687816 0.4085988
0.5687816 0.5687816 0.4085988
0.092819 0.092819 0.4586928
0.1678172 0.092819 0.4586928
0.2686816 0.092819 0.4586928
0.3470774 0.092819 0.4586928
0.4085988 0.092819 0.4586928
0.4586928 0.092819 0.4586928
0.5007803 0.092819 0.4586928
0.5370079 0.092819 0.4586928
0.5687816 0.092819 0.4586928
0.092819 0.1678172 0.4586928
0.1678172 0.1678172 0.4586928
0.2686816 0.1678172 0.4586928
0.3470774 0.1678172 0.4586928
0.4085988 0.1678172 0.4586928
0.4586928 0.1678172 0.4586928
0.5007803 0.1678172 0.4586928
0.5370079 0.1678172 0.4586928
0.5687816 0.1678172 0.4586928
0.092819 0.2686816 0.4586928
0.1678172 0.2686816 0.4586928
0.2686816 0.2686816 0.4586928
0.3470774 0.2686816 0.4586928
0.4085988 0.2686816 0.4586928
0.4586928 0.2686816 0.4586928
0.5007803 0.2686816 0.4586928
0.5370079 0.2686816 0.4586928
0.5687816 0.2686816 0.4586928
0.092819 0.3470774 0.4586928
0.1678172 0.3470774 0.4586928
0.2686816 0.3470774 0.4586928
0.3470774 0.3470774 0.4586928
0.4085988 0.3470774 0.4586928
0.4586928 0.3470774 0.4586928
0.5007803 0.3470774 0.4586928
0.5370079 0.3470774 0.4586928
0.5687816 0.3470774 0.4586928
0.092819 0.4085988 0.4586928
0.1678172 0.4085988 0.4586928
0.2686816 0.4085988 0.4586928
0.3470774 0.4085988 0.4586928
0.4085988 0.4085988 0.4586928
0.4586928 0.4085988 0.4586928
0.5007803 0.4085988 0.4586928
0.5370079 0.4085988 0.4586928
0.5687816 0.4085988 0.4586928
0.092819 0.4586928 0.4586928
0.1678172 0.4586928 0.4586928
0.2686816 0.4586928 0.4586928
0.3470774 0.4586928 0.4586928
0.4085988 0.4586928 0.4586928
0.4586928 0.4586928 0.4586928
0.5007803 0.4586928 0.4586928
0.5370079 0.4586928 0.4586928
0.5687816 0.4586928 0.4586928
0.092819 0.5007803 0.4586928
0.1678172 0.5007803 0.4586928
0.2686816 0.5007803 0.4586928
0.3470774 0.5007803 0.4586928
0.4085988 0.5007803 0.4586928
0.4586928 0.5007803 0.4586928
0.5007803 0.5007803 0.4586928
0.5370079 0.5007803 0.4586928
0.5687816 0.5007803 0.4586928
0.092819 0.5370079 0.4586928
0.1678172 0.5370079 0.4586928
0.2686816 0.5370079 0.4586928
0.3470774 0.5370079 0.4586928
0.4085988 0.5370079 0.4586928
0.4586928 0.5370079 0.4586928
0.5007803 0.5370079 0.4586928
0.5370079 0.5370079 0.4586928
0.5687816 0.5370079 0.4586928
0.092819 0.5687816 0.4586928
0.1678172 0.5687816 0.4586928
0.2686816 0.5687816 0.4586928
0.3470774 0.5687816 0.4586928
0.4085988 0.5687816 0.4586928
0.4586928 0.5687816 0.4586928
0.5007803 0.5687816 0.4586928
0.5370079 0.5687816 0.4586928
0.5687816 0.5687816 0.4586928
0.092819 0.092819 0.5007803
0.1678172 0.092819 0.5007803
0.2686816 0.092819 0.5007803
0.3470774 0.092819 0.5007803
0.4085988 0.092819 0.5007803
0.4586928 0.092819 0.5007803
0.5007803 0.092819 0.5007803
0.5370079 0.092819 0.5007803
0.5687816 0.092819 0.5007803
0.092819 0.1678172 0.5007803
0.1678172 0.1678172 0.5007803
0.2686816 0.1678172 0.5007803
0.3470774 0.1678172 0.5007803
0.4085988 0.1678172 0.5007803
0.4586928 0.1678172 0.5007803
0.5007803 0.1678172 0.5007803
0.5370079 0.1678172 0.5007803
0.5687816 0.1678172 0.5007803
0.092819 0.2686816 0.5007803
0.1678172 0.2686816 0.5007803
0.2686816 0.2686816 0.5007803
0.3470774 0.2686816 0.5007803
0.4085988 0.2686816 0.5007803
0.4586928 0.2686816 0.5007803
0.5007803 0.2686816 0.5007803
0.5370079 0.2686816 0.5007803
0.5687816 0.2686816 0.5007803
0.092819 0.3470774 0.5007803
0.1678172 0.3470774 0.5007803
0.2686816 0.3470774 0.5007803
0.3470774 0.3470774 0.5007803
0.4085988 0.3470774 0.5007803
0.4586928 0.3470774 0.5007803
0.5007803 0.3470774 0.5007803
0.5370079 0.3470774 0.5007803
0.5687816 0.3470774 0.5007803
0.092819 0.4085988 0.5007803
0.1678172 0.4085988 0.5007803
0.2686816 0.4085988 0.5007803
0.3470774 0.4085988 0.5007803
0.4085988 0.4085988 0.5007803
0.4586928 0.4085988 0.5007803
0.5007803 0.4085988 0.5007803
0.5370079 0.4085988 0.5007803
0.5687816 0.4085988 0.5007803
0.092819 0.4586928 0.5007803
0.1678172 0.4586928 0.5007803
0.2686816 0.4586928 0.5007803
0.3470774 0.4586928 0.5007803
0.4085988 0.4586928 0.5007803
0.4586928 0.4586928 0.5007803
0.5007803 0.4586928 0.5007803
0.5370079 0.4586928 0.5007803
0.5687816 0.4586928 0.5007803
0.092819 0.5007803 0.5007803
0.1678172 0.5007803 0.5007803
0.2686816 0.5007803 0.5007803
0.3470774 0.5007803 0.5007803
0.4085988 0.5007803 0.5007803
0.4586928 0.5007803 0.5007803
0.5007803 0.5007803 0.5007803
0.5370079 0.5007803 0.5007803
0.5687816 0.5007803 0.5007803
0.092819 0.5370079 0.5007803
0.1678172 0.5370079 0.5007803
0.2686816 0.5370079 0.5007803
0.3470774 0.5370079 0.5007803
0.4085988 0.5370079 0.5007803
0.4586928 0.5370079 0.5007803
0.5007803 0.5370079 0.5007803
0.5370079 0.5370079 0.5007803
0.5687816 0.5370079 0.5007803
0.092819 0.5687816 0.5007803
0.1678172 0.5687816 0.5007803
0.2686816 0.5687816 0.5007803
0.3470774 0.5687816 0.5007803
0.4085988 0.5687816 0.5007803
0.4586928 0.5687816 0.5007803
0.5007803 0.5687816 0.5007803
0.5370079 0.5687816 0.5007803
0.5687816 0.5687816 0.5007803
0.092819 0.092819 0.5370079
0.1678172 0.092819 0.5370079
0.2686816 0.092819 0.5370079
0.3470774 0.092819 0.5370079
0.4085988 0.092819 0.5370079
0.4586928 0.092819 0.5370079
0.5007803 0.092819 0.5370079
0.5370079 0.092819 0.5370079
0.5687816 0.092819 0.5370079
0.092819 0.1678172 0.5370079
0.1678172 0.1678172 0.5370079
0.2686816 0.1678172 0.5370079
0.3470774 0.1678172 0.5370079
0.4085988 0.1678172 0.5370079
0.4586928 0.1678172 0.5370079
0.5007803 0.1678172 0.5370079
0.5370079 0.1678172 0.5370079
0.5687816 0.1678172 0.5370079
0.092819 0.2686816 0.5370079
0.1678172 0.2686816 0.5370079
0.2686816 0.2686816 0.5370079
0.3470774 0.2686816 0.5370079
0.4085988 0.2686816 0.5370079
0.4586928 0.2686816 0.5370079
0.5007803 0.2686816 0.5370079
0.5370079 0.2686816 0.5370079
0.5687816 0.2686816 0.5370079
0.092819 0.3470774 0.5370079
0.1678172 0.3470774 0.5370079
0.2686816 0.3470774 0.5370079
0.3470774 0.3470774 0.5370079
0.4085988 0.3470774 0.5370079
0.4586928 0.3470774 0.5370079
0.5007803 0.3470774 0.5370079
0.5370079 0.3470774 0.5370079
0.5687816 0.3470774 0.5370079
0.092819 0.4085988 0.5370079
0.1678172 0.4085988 0.5370079
0.2686816 0.4085988 0.5370079
0.3470774 0.4085988 0.5370079
0.4085988 0.4085988 0.5370079
0.4586928 0.4085988 0.5370079
0.5007803 0.4085988 0.5370079
0.5370079 0.4085988 0.5370079
0.5687816 0.4085988 0.5370079
0.092819 0.4586928 0.5370079
0.1678172 0.4586928 0.5370079
0.2686816 0.4586928 0.5370079
0.3470774 0.4586928 0.5370079
0.4085988 0.4586928 0.5370079
0.4586928 0.4586928 0.5370079
0.5007803 0.4586928 0.5370079
0.5370079 0.4586928 0.5370079
0.5687816 0.4586928 0.5370079
0.092819 0.5007803 0.5370079
0.1678172 0.5007803 0.5370079
0.2686816 0.5007803 0.5370079
0.3470774 0.5007803 0.5370079
0.4085988 0.5007803 0.5370079
0.4586928 0.5007803 0.5370079
0.5007803 0.5007803 0.5370079
0.5370079 0.5007803 0.5370079
0.5687816 0.5007803 0.5370079
0.092819 0.5370079 0.5370079
0.1678172 0.5370079 0.5370079
0.2686816 0.5370079 0.5370079
0.3470774 0.5370079 0.5370079
0.4085988 0.5370079 0.5370079
0.4586928 0.5370079 0.5370079
0.5007803 0.5370079 0.5370079
0.5370079 0.5370079 0.5370079
0.5687816 0.5370079 0.5370079
0.092819 0.5687816 0.5370079
0.1678172 0.5687816 0.5370079
0.2686816 0.5687816 0.5370079
0.3470774 0.5687816 0.5370079
0.4085988 0.5687816 0.5370079
0.4586928 0.5687816 0.5370079
0.5007803 0.5687816 0.5370079
0.5370079 0.5687816 0.5370079
0.5687816 0.5687816 0.5370079
0.092819 0.092819 0.5687816
0.1678172 0.092819 0.5687816
0.2686816 0.092819 0.5687816
0.3470774 0.092819 0.5687816
0.4085988 0.092819 0.5687816
0.4586928 0.092819 0.5687816
0.5007803 0.092819 0.5687816
0.5370079 0.092819 0.5687816
0.5687816 0.092819 0.5687816
0.092819 0.1678172 0.5687816
0.1678172 0.1678172 0.5687816
0.2686816 0.1678172 0.5687816
0.3470774 0.1678172 0.5687816
0.4085988 0.1678172 0.5687816
0.4586928 0.1678172 0.5687816
0.5007803 0.1678172 0.5687816
0.5370079 0.1678172 0.5687816
0.5687816 0.1678172 0.5687816
0.092819 0.2686816 0.5687816
0.1678172 0.2686816 0.5687816
0.2686816 0.2686816 0.5687816
0.3470774 0.2686816 0.5687816
0.4085988 0.2686816 0.5687816
0.4586928 0.2686816 0.5687816
0.5007803 0.2686816 0.5687816
0.5370079 0.2686816 0.5687816
0.5687816 0.2686816 0.5687816
0.092819 0.3470774 0.5687816
0.1678172 0.3470774 0.5687816
0.2686816 0.3470774 0.5687816
0.3470774 0.3470774 0.5687816
0.4085988 0.3470774 0.5687816
0.4586928 0.3470774 0.5687816
0.5007803 0.3470774 0.5687816
0.5370079 0.3470774 0.5687816
0.5687816 0.3470774 0.5687816
0.092819 0.4085988 0.5687816
0.1678172 0.4085988 0.5687816
0.2686816 0.4085988 0.5687816
0.3470774 0.4085988 0.5687816
0.4085988 0.4085988 0.5687816
0.4586928 0.4085988 0.5687816
0.5007803 0.4085988 0.5687816
0.5370079 0.4085988 0.5687816
0.5687816 0.4085988 0.5687816
0.092819 0.4586928 0.5687816
0.1678172 0.4586928 0.5687816
0.2686816 0.4586928 0.5687816
0.3470774 0.4586928 0.5687816
0.4085988 0.4586928 0.5687816
0.4586928 0.4586928 0.5687816
0.5007803 0.4586928 0.5687816
0.5370079 0.4586928 0.5687816
0.5687816 0.4586928 0.5687816
0.092819 0.5007803 0.5687816
0.1678172 0.5007803 0.5687816
0.2686816 0.5007803 0.5687816
0.3470774 0.5007803 0.5687816
0.4085988 0.5007803 0.5687816
0.4586928 0.5007803 0.5687816
0.5007803 0.5007803 0.5687816
0.5370079 0.5007803 0.5687816
0.5687816 0.5007803 0.5687816
0.092819 0.5370079 0.5687816
0.1678172 0.5370079 0.5687816
0.2686816 0.5370079 0.5687816
0.3470774 0.5370079 0.5687816
0.4085988 0.5370079 0.5687816
0.4586928 0.5370079 0.5687816
0.5007803 0.5370079 0.5687816
0.5370079 0.5370079 0.5687816
0.5687816 0.5370079 0.5687816
0.092819 0.5687816 0.5687816
0.1678172 0.5687816 0.5687816
0.2686816 0.5687816 0.5687816
0.3470774 0.5687816 0.5687816
0.4085988 0.5687816 0.5687816
0.4586928 0.5687816 0.5687816
0.5007803 0.5687816 0.5687816
0.5370079 0.5687816 0.5687816
0.5687816 0.5687816 0.5687816
