Packages/com.unity.postprocessing/PostProcessing/Textures/Cubes/sRGB to Unity Log r1.cube
TITLE "sRGB to Unity Log r1"
LUT_3D_SIZE 33
DOMAIN_MIN 0 0 0
DOMAIN_MAX 1 1 1
0.092819 0.092819 0.092819
0.1056428 0.092819 0.092819
0.1201537 0.092819 0.092819
0.1409607 0.092819 0.092819
0.1678172 0.092819 0.092819
0.1950164 0.092819 0.092819
0.2210581 0.092819 0.092819
0.245636 0.092819 0.092819
0.2686816 0.092819 0.092819
0.2902431 0.092819 0.092819
0.3104189 0.092819 0.092819
0.3293248 0.092819 0.092819
0.3470774 0.092819 0.092819
0.3637862 0.092819 0.092819
0.3795513 0.092819 0.092819
0.3944623 0.092819 0.092819
0.4085988 0.092819 0.092819
0.4220313 0.092819 0.092819
0.4348222 0.092819 0.092819
0.4470264 0.092819 0.092819
0.4586928 0.092819 0.092819
0.4698649 0.092819 0.092819
0.4805811 0.092819 0.092819
0.490876 0.092819 0.092819
0.5007803 0.092819 0.092819
0.510322 0.092819 0.092819
0.5195258 0.092819 0.092819
0.5284142 0.092819 0.092819
0.5370079 0.092819 0.092819
0.5453253 0.092819 0.092819
0.5533834 0.092819 0.092819
0.5611974 0.092819 0.092819
0.5687816 0.092819 0.092819
0.092819 0.1056428 0.092819
0.1056428 0.1056428 0.092819
0.1201537 0.1056428 0.092819
0.1409607 0.1056428 0.092819
0.1678172 0.1056428 0.092819
0.1950164 0.1056428 0.092819
0.2210581 0.1056428 0.092819
0.245636 0.1056428 0.092819
0.2686816 0.1056428 0.092819
0.2902431 0.1056428 0.092819
0.3104189 0.1056428 0.092819
0.3293248 0.1056428 0.092819
0.3470774 0.1056428 0.092819
0.3637862 0.1056428 0.092819
0.3795513 0.1056428 0.092819
0.3944623 0.1056428 0.092819
0.4085988 0.1056428 0.092819
0.4220313 0.1056428 0.092819
0.4348222 0.1056428 0.092819
0.4470264 0.1056428 0.092819
0.4586928 0.1056428 0.092819
0.4698649 0.1056428 0.092819
0.4805811 0.1056428 0.092819
0.490876 0.1056428 0.092819
0.5007803 0.1056428 0.092819
0.510322 0.1056428 0.092819
0.5195258 0.1056428 0.092819
0.5284142 0.1056428 0.092819
0.5370079 0.1056428 0.092819
0.5453253 0.1056428 0.092819
0.5533834 0.1056428 0.092819
0.5611974 0.1056428 0.092819
0.5687816 0.1056428 0.092819
0.092819 0.1201537 0.092819
0.1056428 0.1201537 0.092819
0.1201537 0.1201537 0.092819
0.1409607 0.1201537 0.092819
0.1678172 0.1201537 0.092819
0.1950164 0.1201537 0.092819
0.2210581 0.1201537 0.092819
0.245636 0.1201537 0.092819
0.2686816 0.1201537 0.092819
0.2902431 0.1201537 0.092819
0.3104189 0.1201537 0.092819
0.3293248 0.1201537 0.092819
0.3470774 0.1201537 0.092819
0.3637862 0.1201537 0.092819
0.3795513 0.1201537 0.092819
0.3944623 0.1201537 0.092819
0.4085988 0.1201537 0.092819
0.4220313 0.1201537 0.092819
0.4348222 0.1201537 0.092819
0.4470264 0.1201537 0.092819
0.4586928 0.1201537 0.092819
0.4698649 0.1201537 0.092819
0.4805811 0.1201537 0.092819
0.490876 0.1201537 0.092819
0.5007803 0.1201537 0.092819
0.510322 0.1201537 0.092819
0.5195258 0.1201537 0.092819
0.5284142 0.1201537 0.092819
0.5370079 0.1201537 0.092819
0.5453253 0.1201537 0.092819
0.5533834 0.1201537 0.092819
0.5611974 0.1201537 0.092819
0.5687816 0.1201537 0.092819
0.092819 0.1409607 0.092819
0.1056428 0.1409607 0.092819
0.1201537 0.1409607 0.092819
0.1409607 0.1409607 0.092819
0.1678172 0.1409607 0.092819
0.1950164 0.1409607 0.092819
0.2210581 0.1409607 0.092819
0.245636 0.1409607 0.092819
0.2686816 0.1409607 0.092819
0.2902431 0.1409607 0.092819
0.3104189 0.1409607 0.092819
0.3293248 0.1409607 0.092819
0.3470774 0.1409607 0.092819
0.3637862 0.1409607 0.092819
0.3795513 0.1409607 0.092819
0.3944623 0.1409607 0.092819
0.4085988 0.1409607 0.092819
0.4220313 0.1409607 0.092819
0.4348222 0.1409607 0.092819
0.4470264 0.1409607 0.092819
0.4586928 0.1409607 0.092819
0.4698649 0.1409607 0.092819
0.4805811 0.1409607 0.092819
0.490876 0.1409607 0.092819
0.5007803 0.1409607 0.092819
0.510322 0.1409607 0.092819
0.5195258 0.1409607 0.092819
0.5284142 0.1409607 0.092819
0.5370079 0.1409607 0.092819
0.5453253 0.1409607 0.092819
0.5533834 0.1409607 0.092819
0.5611974 0.1409607 0.092819
0.5687816 0.1409607 0.092819
0.092819 0.1678172 0.092819
0.1056428 0.1678172 0.092819
0.1201537 0.1678172 0.092819
0.1409607 0.1678172 0.092819
0.1678172 0.1678172 0.092819
0.1950164 0.1678172 0.092819
0.2210581 0.1678172 0.092819
0.245636 0.1678172 0.092819
0.2686816 0.1678172 0.092819
0.2902431 0.1678172 0.092819
0.3104189 0.1678172 0.092819
0.3293248 0.1678172 0.092819
0.3470774 0.1678172 0.092819
0.3637862 0.1678172 0.092819
0.3795513 0.1678172 0.092819
0.3944623 0.1678172 0.092819
0.4085988 0.1678172 0.092819
0.4220313 0.1678172 0.092819
0.4348222 0.1678172 0.092819
0.4470264 0.1678172 0.092819
0.4586928 0.1678172 0.092819
0.4698649 0.1678172 0.092819
0.4805811 0.1678172 0.092819
0.490876 0.1678172 0.092819
0.5007803 0.1678172 0.092819
0.510322 0.1678172 0.092819
0.5195258 0.1678172 0.092819
0.5284142 0.1678172 0.092819
0.5370079 0.1678172 0.092819
0.5453253 0.1678172 0.092819
0.5533834 0.1678172 0.092819
0.5611974 0.1678172 0.092819
0.5687816 0.1678172 0.092819
0.092819 0.1950164 0.092819
0.1056428 0.1950164 0.092819
0.1201537 0.1950164 0.092819
0.1409607 0.1950164 0.092819
0.1678172 0.1950164 0.092819
0.1950164 0.1950164 0.092819
0.2210581 0.1950164 0.092819
0.245636 0.1950164 0.092819
0.2686816 0.1950164 0.092819
0.2902431 0.1950164 0.092819
0.3104189 0.1950164 0.092819
0.3293248 0.1950164 0.092819
0.3470774 0.1950164 0.092819
0.3637862 0.1950164 0.092819
0.3795513 0.1950164 0.092819
0.3944623 0.1950164 0.092819
0.4085988 0.1950164 0.092819
0.4220313 0.1950164 0.092819
0.4348222 0.1950164 0.092819
0.4470264 0.1950164 0.092819
0.4586928 0.1950164 0.092819
0.4698649 0.1950164 0.092819
0.4805811 0.1950164 0.092819
0.490876 0.1950164 0.092819
0.5007803 0.1950164 0.092819
0.510322 0.1950164 0.092819
0.5195258 0.1950164 0.092819
0.5284142 0.1950164 0.092819
0.5370079 0.1950164 0.092819
0.5453253 0.1950164 0.092819
0.5533834 0.1950164 0.092819
0.5611974 0.1950164 0.092819
0.5687816 0.1950164 0.092819
0.092819 0.2210581 0.092819
0.1056428 0.2210581 0.092819
0.1201537 0.2210581 0.092819
0.1409607 0.2210581 0.092819
0.1678172 0.2210581 0.092819
0.1950164 0.2210581 0.092819
0.2210581 0.2210581 0.092819
0.245636 0.2210581 0.092819
0.2686816 0.2210581 0.092819
0.2902431 0.2210581 0.092819
0.3104189 0.2210581 0.092819
0.3293248 0.2210581 0.092819
0.3470774 0.2210581 0.092819
0.3637862 0.2210581 0.092819
0.3795513 0.2210581 0.092819
0.3944623 0.2210581 0.092819
0.4085988 0.2210581 0.092819
0.4220313 0.2210581 0.092819
0.4348222 0.2210581 0.092819
0.4470264 0.2210581 0.092819
0.4586928 0.2210581 0.092819
0.4698649 0.2210581 0.092819
0.4805811 0.2210581 0.092819
0.490876 0.2210581 0.092819
0.5007803 0.2210581 0.092819
0.510322 0.2210581 0.092819
0.5195258 0.2210581 0.092819
0.5284142 0.2210581 0.092819
0.5370079 0.2210581 0.092819
0.5453253 0.2210581 0.092819
0.5533834 0.2210581 0.092819
0.5611974 0.2210581 0.092819
0.5687816 0.2210581 0.092819
0.092819 0.245636 0.092819
0.1056428 0.245636 0.092819
0.1201537 0.245636 0.092819
0.1409607 0.245636 0.092819
0.1678172 0.245636 0.092819
0.1950164 0.245636 0.092819
0.2210581 0.245636 0.092819
0.245636 0.245636 0.092819
0.2686816 0.245636 0.092819
0.2902431 0.245636 0.092819
0.3104189 0.245636 0.092819
0.3293248 0.245636 0.092819
0.3470774 0.245636 0.092819
0.3637862 0.245636 0.092819
0.3795513 0.245636 0.092819
0.3944623 0.245636 0.092819
0.4085988 0.245636 0.092819
0.4220313 0.245636 0.092819
0.4348222 0.245636 0.092819
0.4470264 0.245636 0.092819
0.4586928 0.245636 0.092819
0.4698649 0.245636 0.092819
0.4805811 0.245636 0.092819
0.490876 0.245636 0.092819
0.5007803 0.245636 0.092819
0.510322 0.245636 0.092819
0.5195258 0.245636 0.092819
0.5284142 0.245636 0.092819
0.5370079 0.245636 0.092819
0.5453253 0.245636 0.092819
0.5533834 0.245636 0.092819
0.5611974 0.245636 0.092819
0.5687816 0.245636 0.092819
0.092819 0.2686816 0.092819
0.1056428 0.2686816 0.092819
0.1201537 0.2686816 0.092819
0.1409607 0.2686816 0.092819
0.1678172 0.2686816 0.092819
0.1950164 0.2686816 0.092819
0.2210581 0.2686816 0.092819
0.245636 0.2686816 0.092819
0.2686816 0.2686816 0.092819
0.2902431 0.2686816 0.092819
0.3104189 0.2686816 0.092819
0.3293248 0.2686816 0.092819
0.3470774 0.2686816 0.092819
0.3637862 0.2686816 0.092819
0.3795513 0.2686816 0.092819
0.3944623 0.2686816 0.092819
0.4085988 0.2686816 0.092819
0.4220313 0.2686816 0.092819
0.4348222 0.2686816 0.092819
0.4470264 0.2686816 0.092819
0.4586928 0.2686816 0.092819
0.4698649 0.2686816 0.092819
0.4805811 0.2686816 0.092819
0.490876 0.2686816 0.092819
0.5007803 0.2686816 0.092819
0.510322 0.2686816 0.092819
0.5195258 0.2686816 0.092819
0.5284142 0.2686816 0.092819
0.5370079 0.2686816 0.092819
0.5453253 0.2686816 0.092819
0.5533834 0.2686816 0.092819
0.5611974 0.2686816 0.092819
0.5687816 0.2686816 0.092819
0.092819 0.2902431 0.092819
0.1056428 0.2902431 0.092819
0.1201537 0.2902431 0.092819
0.1409607 0.2902431 0.092819
0.1678172 0.2902431 0.092819
0.1950164 0.2902431 0.092819
0.2210581 0.2902431 0.092819
0.245636 0.2902431 0.092819
0.2686816 0.2902431 0.092819
0.2902431 0.2902431 0.092819
0.3104189 0.2902431 0.092819
0.3293248 0.2902431 0.092819
0.3470774 0.2902431 0.092819
0.3637862 0.2902431 0.092819
0.3795513 0.2902431 0.092819
0.3944623 0.2902431 0.092819
0.4085988 0.2902431 0.092819
0.4220313 0.2902431 0.092819
0.4348222 0.2902431 0.092819
0.4470264 0.2902431 0.092819
0.4586928 0.2902431 0.092819
0.4698649 0.2902431 0.092819
0.4805811 0.2902431 0.092819
0.490876 0.2902431 0.092819
0.5007803 0.2902431 0.092819
0.510322 0.2902431 0.092819
0.5195258 0.2902431 0.092819
0.5284142 0.2902431 0.092819
0.5370079 0.2902431 0.092819
0.5453253 0.2902431 0.092819
0.5533834 0.2902431 0.092819
0.5611974 0.2902431 0.092819
0.5687816 0.2902431 0.092819
0.092819 0.3104189 0.092819
0.1056428 0.3104189 0.092819
0.1201537 0.3104189 0.092819
0.1409607 0.3104189 0.092819
0.1678172 0.3104189 0.092819
0.1950164 0.3104189 0.092819
0.2210581 0.3104189 0.092819
0.245636 0.3104189 0.092819
0.2686816 0.3104189 0.092819
0.2902431 0.3104189 0.092819
0.3104189 0.3104189 0.092819
0.3293248 0.3104189 0.092819
0.3470774 0.3104189 0.092819
0.3637862 0.3104189 0.092819
0.3795513 0.3104189 0.092819
0.3944623 0.3104189 0.092819
0.4085988 0.3104189 0.092819
0.4220313 0.3104189 0.092819
0.4348222 0.3104189 0.092819
0.4470264 0.3104189 0.092819
0.4586928 0.3104189 0.092819
0.4698649 0.3104189 0.092819
0.4805811 0.3104189 0.092819
0.490876 0.3104189 0.092819
0.5007803 0.3104189 0.092819
0.510322 0.3104189 0.092819
0.5195258 0.3104189 0.092819
0.5284142 0.3104189 0.092819
0.5370079 0.3104189 0.092819
0.5453253 0.3104189 0.092819
0.5533834 0.3104189 0.092819
0.5611974 0.3104189 0.092819
0.5687816 0.3104189 0.092819
0.092819 0.3293248 0.092819
0.1056428 0.3293248 0.092819
0.1201537 0.3293248 0.092819
0.1409607 0.3293248 0.092819
0.1678172 0.3293248 0.092819
0.1950164 0.3293248 0.092819
0.2210581 0.3293248 0.092819
0.245636 0.3293248 0.092819
0.2686816 0.3293248 0.092819
0.2902431 0.3293248 0.092819
0.3104189 0.3293248 0.092819
0.3293248 0.3293248 0.092819
0.3470774 0.3293248 0.092819
0.3637862 0.3293248 0.092819
0.3795513 0.3293248 0.092819
0.3944623 0.3293248 0.092819
0.4085988 0.3293248 0.092819
0.4220313 0.3293248 0.092819
0.4348222 0.3293248 0.092819
0.4470264 0.3293248 0.092819
0.4586928 0.3293248 0.092819
0.4698649 0.3293248 0.092819
0.4805811 0.3293248 0.092819
0.490876 0.3293248 0.092819
0.5007803 0.3293248 0.092819
0.510322 0.3293248 0.092819
0.5195258 0.3293248 0.092819
0.5284142 0.3293248 0.092819
0.5370079 0.3293248 0.092819
0.5453253 0.3293248 0.092819
0.5533834 0.3293248 0.092819
0.5611974 0.3293248 0.092819
0.5687816 0.3293248 0.092819
0.092819 0.3470774 0.092819
0.1056428 0.3470774 0.092819
0.1201537 0.3470774 0.092819
0.1409607 0.3470774 0.092819
0.1678172 0.3470774 0.092819
0.1950164 0.3470774 0.092819
0.2210581 0.3470774 0.092819
0.245636 0.3470774 0.092819
0.2686816 0.3470774 0.092819
0.2902431 0.3470774 0.092819
0.3104189 0.3470774 0.092819
0.3293248 0.3470774 0.092819
0.3470774 0.3470774 0.092819
0.3637862 0.3470774 0.092819
0.3795513 0.3470774 0.092819
0.3944623 0.3470774 0.092819
0.4085988 0.3470774 0.092819
0.4220313 0.3470774 0.092819
0.4348222 0.3470774 0.092819
0.4470264 0.3470774 0.092819
0.4586928 0.3470774 0.092819
0.4698649 0.3470774 0.092819
0.4805811 0.3470774 0.092819
0.490876 0.3470774 0.092819
0.5007803 0.3470774 0.092819
0.510322 0.3470774 0.092819
0.5195258 0.3470774 0.092819
0.5284142 0.3470774 0.092819
0.5370079 0.3470774 0.092819
0.5453253 0.3470774 0.092819
0.5533834 0.3470774 0.092819
0.5611974 0.3470774 0.092819
0.5687816 0.3470774 0.092819
0.092819 0.3637862 0.092819
0.1056428 0.3637862 0.092819
0.1201537 0.3637862 0.092819
0.1409607 0.3637862 0.092819
0.1678172 0.3637862 0.092819
0.1950164 0.3637862 0.092819
0.2210581 0.3637862 0.092819
0.245636 0.3637862 0.092819
0.2686816 0.3637862 0.092819
0.2902431 0.3637862 0.092819
0.3104189 0.3637862 0.092819
0.3293248 0.3637862 0.092819
0.3470774 0.3637862 0.092819
0.3637862 0.3637862 0.092819
0.3795513 0.3637862 0.092819
0.3944623 0.3637862 0.092819
0.4085988 0.3637862 0.092819
0.4220313 0.3637862 0.092819
0.4348222 0.3637862 0.092819
0.4470264 0.3637862 0.092819
0.4586928 0.3637862 0.092819
0.4698649 0.3637862 0.092819
0.4805811 0.3637862 0.092819
0.490876 0.3637862 0.092819
0.5007803 0.3637862 0.092819
0.510322 0.3637862 0.092819
0.5195258 0.3637862 0.092819
0.5284142 0.3637862 0.092819
0.5370079 0.3637862 0.092819
0.5453253 0.3637862 0.092819
0.5533834 0.3637862 0.092819
0.5611974 0.3637862 0.092819
0.5687816 0.3637862 0.092819
0.092819 0.3795513 0.092819
0.1056428 0.3795513 0.092819
0.1201537 0.3795513 0.092819
0.1409607 0.3795513 0.092819
0.1678172 0.3795513 0.092819
0.1950164 0.3795513 0.092819
0.2210581 0.3795513 0.092819
0.245636 0.3795513 0.092819
0.2686816 0.3795513 0.092819
0.2902431 0.3795513 0.092819
0.3104189 0.3795513 0.092819
0.3293248 0.3795513 0.092819
0.3470774 0.3795513 0.092819
0.3637862 0.3795513 0.092819
0.3795513 0.3795513 0.092819
0.3944623 0.3795513 0.092819
0.4085988 0.3795513 0.092819
0.4220313 0.3795513 0.092819
0.4348222 0.3795513 0.092819
0.4470264 0.3795513 0.092819
0.4586928 0.3795513 0.092819
0.4698649 0.3795513 0.092819
0.4805811 0.3795513 0.092819
0.490876 0.3795513 0.092819
0.5007803 0.3795513 0.092819
0.510322 0.3795513 0.092819
0.5195258 0.3795513 0.092819
0.5284142 0.3795513 0.092819
0.5370079 0.3795513 0.092819
0.5453253 0.3795513 0.092819
0.5533834 0.3795513 0.092819
0.5611974 0.3795513 0.092819
0.5687816 0.3795513 0.092819
0.092819 0.3944623 0.092819
0.1056428 0.3944623 0.092819
0.1201537 0.3944623 0.092819
0.1409607 0.3944623 0.092819
0.1678172 0.3944623 0.092819
0.1950164 0.3944623 0.092819
0.2210581 0.3944623 0.092819
0.245636 0.3944623 0.092819
0.2686816 0.3944623 0.092819
0.2902431 0.3944623 0.092819
0.3104189 0.3944623 0.092819
0.3293248 0.3944623 0.092819
0.3470774 0.3944623 0.092819
0.3637862 0.3944623 0.092819
0.3795513 0.3944623 0.092819
0.3944623 0.3944623 0.092819
0.4085988 0.3944623 0.092819
0.4220313 0.3944623 0.092819
0.4348222 0.3944623 0.092819
0.4470264 0.3944623 0.092819
0.4586928 0.3944623 0.092819
0.4698649 0.3944623 0.092819
0.4805811 0.3944623 0.092819
0.490876 0.3944623 0.092819
0.5007803 0.3944623 0.092819
0.510322 0.3944623 0.092819
0.5195258 0.3944623 0.092819
0.5284142 0.3944623 0.092819
0.5370079 0.3944623 0.092819
0.5453253 0.3944623 0.092819
0.5533834 0.3944623 0.092819
0.5611974 0.3944623 0.092819
0.5687816 0.3944623 0.092819
0.092819 0.4085988 0.092819
0.1056428 0.4085988 0.092819
0.1201537 0.4085988 0.092819
0.1409607 0.4085988 0.092819
0.1678172 0.4085988 0.092819
0.1950164 0.4085988 0.092819
0.2210581 0.4085988 0.092819
0.245636 0.4085988 0.092819
0.2686816 0.4085988 0.092819
0.2902431 0.4085988 0.092819
0.3104189 0.4085988 0.092819
0.3293248 0.4085988 0.092819
0.3470774 0.4085988 0.092819
0.3637862 0.4085988 0.092819
0.3795513 0.4085988 0.092819
0.3944623 0.4085988 0.092819
0.4085988 0.4085988 0.092819
0.4220313 0.4085988 0.092819
0.4348222 0.4085988 0.092819
0.4470264 0.4085988 0.092819
0.4586928 0.4085988 0.092819
0.4698649 0.4085988 0.092819
0.4805811 0.4085988 0.092819
0.490876 0.4085988 0.092819
0.5007803 0.4085988 0.092819
0.510322 0.4085988 0.092819
0.5195258 0.4085988 0.092819
0.5284142 0.4085988 0.092819
0.5370079 0.4085988 0.092819
0.5453253 0.4085988 0.092819
0.5533834 0.4085988 0.092819
0.5611974 0.4085988 0.092819
0.5687816 0.4085988 0.092819
0.092819 0.4220313 0.092819
0.1056428 0.4220313 0.092819
0.1201537 0.4220313 0.092819
0.1409607 0.4220313 0.092819
0.1678172 0.4220313 0.092819
0.1950164 0.4220313 0.092819
0.2210581 0.4220313 0.092819
0.245636 0.4220313 0.092819
0.2686816 0.4220313 0.092819
0.2902431 0.4220313 0.092819
0.3104189 0.4220313 0.092819
0.3293248 0.4220313 0.092819
0.3470774 0.4220313 0.092819
0.3637862 0.4220313 0.092819
0.3795513 0.4220313 0.092819
0.3944623 0.4220313 0.092819
0.4085988 0.4220313 0.092819
0.4220313 0.4220313 0.092819
0.4348222 0.4220313 0.092819
0.4470264 0.4220313 0.092819
0.4586928 0.4220313 0.092819
0.4698649 0.4220313 0.092819
0.4805811 0.4220313 0.092819
0.490876 0.4220313 0.092819
0.5007803 0.4220313 0.092819
0.510322 0.4220313 0.092819
0.5195258 0.4220313 0.092819
0.5284142 0.4220313 0.092819
0.5370079 0.4220313 0.092819
0.5453253 0.4220313 0.092819
0.5533834 0.4220313 0.092819
0.5611974 0.4220313 0.092819
0.5687816 0.4220313 0.092819
0.092819 0.4348222 0.092819
0.1056428 0.4348222 0.092819
0.1201537 0.4348222 0.092819
0.1409607 0.4348222 0.092819
0.1678172 0.4348222 0.092819
0.1950164 0.4348222 0.092819
0.2210581 0.4348222 0.092819
0.245636 0.4348222 0.092819
0.2686816 0.4348222 0.092819
0.2902431 0.4348222 0.092819
0.3104189 0.4348222 0.092819
0.3293248 0.4348222 0.092819
0.3470774 0.4348222 0.092819
0.3637862 0.4348222 0.092819
0.3795513 0.4348222 0.092819
0.3944623 0.4348222 0.092819
0.4085988 0.4348222 0.092819
0.4220313 0.4348222 0.092819
0.4348222 0.4348222 0.092819
0.4470264 0.4348222 0.092819
0.4586928 0.4348222 0.092819
0.4698649 0.4348222 0.092819
0.4805811 0.4348222 0.092819
0.490876 0.4348222 0.092819
0.5007803 0.4348222 0.092819
0.510322 0.4348222 0.092819
0.5195258 0.4348222 0.092819
0.5284142 0.4348222 0.092819
0.5370079 0.4348222 0.092819
0.5453253 0.4348222 0.092819
0.5533834 0.4348222 0.092819
0.5611974 0.4348222 0.092819
0.5687816 0.4348222 0.092819
0.092819 0.4470264 0.092819
0.1056428 0.4470264 0.092819
0.1201537 0.4470264 0.092819
0.1409607 0.4470264 0.092819
0.1678172 0.4470264 0.092819
0.1950164 0.4470264 0.092819
0.2210581 0.4470264 0.092819
0.245636 0.4470264 0.092819
0.2686816 0.4470264 0.092819
0.2902431 0.4470264 0.092819
0.3104189 0.4470264 0.092819
0.3293248 0.4470264 0.092819
0.3470774 0.4470264 0.092819
0.3637862 0.4470264 0.092819
0.3795513 0.4470264 0.092819
0.3944623 0.4470264 0.092819
0.4085988 0.4470264 0.092819
0.4220313 0.4470264 0.092819
0.4348222 0.4470264 0.092819
0.4470264 0.4470264 0.092819
0.4586928 0.4470264 0.092819
0.4698649 0.4470264 0.092819
0.4805811 0.4470264 0.092819
0.490876 0.4470264 0.092819
0.5007803 0.4470264 0.092819
0.510322 0.4470264 0.092819
0.5195258 0.4470264 0.092819
0.5284142 0.4470264 0.092819
0.5370079 0.4470264 0.092819
0.5453253 0.4470264 0.092819
0.5533834 0.4470264 0.092819
0.5611974 0.4470264 0.092819
0.5687816 0.4470264 0.092819
0.092819 0.4586928 0.092819
0.1056428 0.4586928 0.092819
0.1201537 0.4586928 0.092819
0.1409607 0.4586928 0.092819
0.1678172 0.4586928 0.092819
0.1950164 0.4586928 0.092819
0.2210581 0.4586928 0.092819
0.245636 0.4586928 0.092819
0.2686816 0.4586928 0.092819
0.2902431 0.4586928 0.092819
0.3104189 0.4586928 0.092819
0.3293248 0.4586928 0.092819
0.3470774 0.4586928 0.092819
0.3637862 0.4586928 0.092819
0.3795513 0.4586928 0.092819
0.3944623 0.4586928 0.092819
0.4085988 0.4586928 0.092819
0.4220313 0.4586928 0.092819
0.4348222 0.4586928 0.092819
0.4470264 0.4586928 0.092819
0.4586928 0.4586928 0.092819
0.4698649 0.4586928 0.092819
0.4805811 0.4586928 0.092819
0.490876 0.4586928 0.092819
0.5007803 0.4586928 0.092819
0.510322 0.4586928 0.092819
0.5195258 0.4586928 0.092819
0.5284142 0.4586928 0.092819
0.5370079 0.4586928 0.092819
0.5453253 0.4586928 0.092819
0.5533834 0.4586928 0.092819
0.5611974 0.4586928 0.092819
0.5687816 0.4586928 0.092819
0.092819 0.4698649 0.092819
0.1056428 0.4698649 0.092819
0.1201537 0.4698649 0.092819
0.1409607 0.4698649 0.092819
0.1678172 0.4698649 0.092819
0.1950164 0.4698649 0.092819
0.2210581 0.4698649 0.092819
0.245636 0.4698649 0.092819
0.2686816 0.4698649 0.092819
0.2902431 0.4698649 0.092819
0.3104189 0.4698649 0.092819
0.3293248 0.4698649 0.092819
0.3470774 0.4698649 0.092819
0.3637862 0.4698649 0.092819
0.3795513 0.4698649 0.092819
0.3944623 0.4698649 0.092819
0.4085988 0.4698649 0.092819
0.4220313 0.4698649 0.092819
0.4348222 0.4698649 0.092819
0.4470264 0.4698649 0.092819
0.4586928 0.4698649 0.092819
0.4698649 0.4698649 0.092819
0.4805811 0.4698649 0.092819
0.490876 0.4698649 0.092819
0.5007803 0.4698649 0.092819
0.510322 0.4698649 0.092819
0.5195258 0.4698649 0.092819
0.5284142 0.4698649 0.092819
0.5370079 0.4698649 0.092819
0.5453253 0.4698649 0.092819
0.5533834 0.4698649 0.092819
0.5611974 0.4698649 0.092819
0.5687816 0.4698649 0.092819
0.092819 0.4805811 0.092819
0.1056428 0.4805811 0.092819
0.1201537 0.4805811 0.092819
0.1409607 0.4805811 0.092819
0.1678172 0.4805811 0.092819
0.1950164 0.4805811 0.092819
0.2210581 0.4805811 0.092819
0.245636 0.4805811 0.092819
0.2686816 0.4805811 0.092819
0.2902431 0.4805811 0.092819
0.3104189 0.4805811 0.092819
0.3293248 0.4805811 0.092819
0.3470774 0.4805811 0.092819
0.3637862 0.4805811 0.092819
0.3795513 0.4805811 0.092819
0.3944623 0.4805811 0.092819
0.4085988 0.4805811 0.092819
0.4220313 0.4805811 0.092819
0.4348222 0.4805811 0.092819
0.4470264 0.4805811 0.092819
0.4586928 0.4805811 0.092819
0.4698649 0.4805811 0.092819
0.4805811 0.4805811 0.092819
0.490876 0.4805811 0.092819
0.5007803 0.4805811 0.092819
0.510322 0.4805811 0.092819
0.5195258 0.4805811 0.092819
0.5284142 0.4805811 0.092819
0.5370079 0.4805811 0.092819
0.5453253 0.4805811 0.092819
0.5533834 0.4805811 0.092819
0.5611974 0.4805811 0.092819
0.5687816 0.4805811 0.092819
0.092819 0.490876 0.092819
0.1056428 0.490876 0.092819
0.1201537 0.490876 0.092819
0.1409607 0.490876 0.092819
0.1678172 0.490876 0.092819
0.1950164 0.490876 0.092819
0.2210581 0.490876 0.092819
0.245636 0.490876 0.092819
0.2686816 0.490876 0.092819
0.2902431 0.490876 0.092819
0.3104189 0.490876 0.092819
0.3293248 0.490876 0.092819
0.3470774 0.490876 0.092819
0.3637862 0.490876 0.092819
0.3795513 0.490876 0.092819
0.3944623 0.490876 0.092819
0.4085988 0.490876 0.092819
0.4220313 0.490876 0.092819
0.4348222 0.490876 0.092819
0.4470264 0.490876 0.092819
0.4586928 0.490876 0.092819
0.4698649 0.490876 0.092819
0.4805811 0.490876 0.092819
0.490876 0.490876 0.092819
0.5007803 0.490876 0.092819
0.510322 0.490876 0.092819
0.5195258 0.490876 0.092819
0.5284142 0.490876 0.092819
0.5370079 0.490876 0.092819
0.5453253 0.490876 0.092819
0.5533834 0.490876 0.092819
0.5611974 0.490876 0.092819
0.5687816 0.490876 0.092819
0.092819 0.5007803 0.092819
0.1056428 0.5007803 0.092819
0.1201537 0.5007803 0.092819
0.1409607 0.5007803 0.092819
0.1678172 0.5007803 0.092819
0.1950164 0.5007803 0.092819
0.2210581 0.5007803 0.092819
0.245636 0.5007803 0.092819
0.2686816 0.5007803 0.092819
0.2902431 0.5007803 0.092819
0.3104189 0.5007803 0.092819
0.3293248 0.5007803 0.092819
0.3470774 0.5007803 0.092819
0.3637862 0.5007803 0.092819
0.3795513 0.5007803 0.092819
0.3944623 0.5007803 0.092819
0.4085988 0.5007803 0.092819
0.4220313 0.5007803 0.092819
0.4348222 0.5007803 0.092819
0.4470264 0.5007803 0.092819
0.4586928 0.5007803 0.092819
0.4698649 0.5007803 0.092819
0.4805811 0.5007803 0.092819
0.490876 0.5007803 0.092819
0.5007803 0.5007803 0.092819
0.510322 0.5007803 0.092819
0.5195258 0.5007803 0.092819
0.5284142 0.5007803 0.092819
0.5370079 0.5007803 0.092819
0.5453253 0.5007803 0.092819
0.5533834 0.5007803 0.092819
0.5611974 0.5007803 0.092819
0.5687816 0.5007803 0.092819
0.092819 0.510322 0.092819
0.1056428 0.510322 0.092819
0.1201537 0.510322 0.092819
0.1409607 0.510322 0.092819
0.1678172 0.510322 0.092819
0.1950164 0.510322 0.092819
0.2210581 0.510322 0.092819
