Packages/com.unity.postprocessing/PostProcessing/Textures/Cubes/Unity Log to sRGB r1.cube
TITLE "Unity Log to sRGB r1"
LUT_3D_SIZE 9
DOMAIN_MIN 0 0 0
DOMAIN_MAX 1 1 1
0 0 0
0.07076883 0 0
0.2245119 0 0
0.4282948 0 0
0.7474945 0 0
1.27456 0 0
2.181521 0 0
3.729748 0 0
6.374593 0 0
0 0.07076883 0
0.07076883 0.07076883 0
0.2245119 0.07076883 0
0.4282948 0.07076883 0
0.7474945 0.07076883 0
1.27456 0.07076883 0
2.181521 0.07076883 0
3.729748 0.07076883 0
6.374593 0.07076883 0
0 0.2245119 0
0.07076883 0.2245119 0
0.2245119 0.2245119 0
0.4282948 0.2245119 0
0.7474945 0.2245119 0
1.27456 0.2245119 0
2.181521 0.2245119 0
3.729748 0.2245119 0
6.374593 0.2245119 0
0 0.4282948 0
0.07076883 0.4282948 0
0.2245119 0.4282948 0
0.4282948 0.4282948 0
0.7474945 0.4282948 0
1.27456 0.4282948 0
2.181521 0.4282948 0
3.729748 0.4282948 0
6.374593 0.4282948 0
0 0.7474945 0
0.07076883 0.7474945 0
0.2245119 0.7474945 0
0.4282948 0.7474945 0
0.7474945 0.7474945 0
1.27456 0.7474945 0
2.181521 0.7474945 0
3.729748 0.7474945 0
6.374593 0.7474945 0
0 1.27456 0
0.07076883 1.27456 0
0.2245119 1.27456 0
0.4282948 1.27456 0
0.7474945 1.27456 0
1.27456 1.27456 0
2.181521 1.27456 0
3.729748 1.27456 0
6.374593 1.27456 0
0 2.181521 0
0.07076883 2.181521 0
0.2245119 2.181521 0
0.4282948 2.181521 0
0.7474945 2.181521 0
1.27456 2.181521 0
2.181521 2.181521 0
3.729748 2.181521 0
6.374593 2.181521 0
0 3.729748 0
0.07076883 3.729748 0
0.2245119 3.729748 0
0.4282948 3.729748 0
0.7474945 3.729748 0
1.27456 3.729748 0
2.181521 3.729748 0
3.729748 3.729748 0
6.374593 3.729748 0
0 6.374593 0
0.07076883 6.374593 0
0.2245119 6.374593 0
0.4282948 6.374593 0
0.7474945 6.374593 0
1.27456 6.374593 0
2.181521 6.374593 0
3.729748 6.374593 0
6.374593 6.374593 0
0 0 0.07076883
0.07076883 0 0.07076883
0.2245119 0 0.07076883
0.4282948 0 0.07076883
0.7474945 0 0.07076883
1.27456 0 0.07076883
2.181521 0 0.07076883
3.729748 0 0.07076883
6.374593 0 0.07076883
0 0.07076883 0.07076883
0.07076883 0.07076883 0.07076883
0.2245119 0.07076883 0.07076883
0.4282948 0.07076883 0.07076883
0.7474945 0.07076883 0.07076883
1.27456 0.07076883 0.07076883
2.181521 0.07076883 0.07076883
3.729748 0.07076883 0.07076883
6.374593 0.07076883 0.07076883
0 0.2245119 0.07076883
0.07076883 0.2245119 0.07076883
0.2245119 0.2245119 0.07076883
0.4282948 0.2245119 0.07076883
0.7474945 0.2245119 0.07076883
1.27456 0.2245119 0.07076883
2.181521 0.2245119 0.07076883
3.729748 0.2245119 0.07076883
6.374593 0.2245119 0.07076883
0 0.4282948 0.07076883
0.07076883 0.4282948 0.07076883
0.2245119 0.4282948 0.07076883
0.4282948 0.4282948 0.07076883
0.7474945 0.4282948 0.07076883
1.27456 0.4282948 0.07076883
2.181521 0.4282948 0.07076883
3.729748 0.4282948 0.07076883
6.374593 0.4282948 0.07076883
0 0.7474945 0.07076883
0.07076883 0.7474945 0.07076883
0.2245119 0.7474945 0.07076883
0.4282948 0.7474945 0.07076883
0.7474945 0.7474945 0.07076883
1.27456 0.7474945 0.07076883
2.181521 0.7474945 0.07076883
3.729748 0.7474945 0.07076883
6.374593 0.7474945 0.07076883
0 1.27456 0.07076883
0.07076883 1.27456 0.07076883
0.2245119 1.27456 0.07076883
0.4282948 1.27456 0.07076883
0.7474945 1.27456 0.07076883
1.27456 1.27456 0.07076883
2.181521 1.27456 0.07076883
3.729748 1.27456 0.07076883
6.374593 1.27456 0.07076883
0 2.181521 0.07076883
0.07076883 2.181521 0.07076883
0.2245119 2.181521 0.07076883
0.4282948 2.181521 0.07076883
0.7474945 2.181521 0.07076883
1.27456 2.181521 0.07076883
2.181521 2.181521 0.07076883
3.729748 2.181521 0.07076883
6.374593 2.181521 0.07076883
0 3.729748 0.07076883
0.07076883 3.729748 0.07076883
0.2245119 3.729748 0.07076883
0.4282948 3.729748 0.07076883
0.7474945 3.729748 0.07076883
1.27456 3.729748 0.07076883
2.181521 3.729748 0.07076883
3.729748 3.729748 0.07076883
6.374593 3.729748 0.07076883
0 6.374593 0.07076883
0.07076883 6.374593 0.07076883
0.2245119 6.374593 0.07076883
0.4282948 6.374593 0.07076883
0.7474945 6.374593 0.07076883
1.27456 6.374593 0.07076883
2.181521 6.374593 0.07076883
3.729748 6.374593 0.07076883
6.374593 6.374593 0.07076883
0 0 0.2245119
0.07076883 0 0.2245119
0.2245119 0 0.2245119
0.4282948 0 0.2245119
0.7474945 0 0.2245119
1.27456 0 0.2245119
2.181521 0 0.2245119
3.729748 0 0.2245119
6.374593 0 0.2245119
0 0.07076883 0.2245119
0.07076883 0.07076883 0.2245119
0.2245119 0.07076883 0.2245119
0.4282948 0.07076883 0.2245119
0.7474945 0.07076883 0.2245119
1.27456 0.07076883 0.2245119
2.181521 0.07076883 0.2245119
3.729748 0.07076883 0.2245119
6.374593 0.07076883 0.2245119
0 0.2245119 0.2245119
0.07076883 0.2245119 0.2245119
0.2245119 0.2245119 0.2245119
0.4282948 0.2245119 0.2245119
0.7474945 0.2245119 0.2245119
1.27456 0.2245119 0.2245119
2.181521 0.2245119 0.2245119
3.729748 0.2245119 0.2245119
6.374593 0.2245119 0.2245119
0 0.4282948 0.2245119
0.07076883 0.4282948 0.2245119
0.2245119 0.4282948 0.2245119
0.4282948 0.4282948 0.2245119
0.7474945 0.4282948 0.2245119
1.27456 0.4282948 0.2245119
2.181521 0.4282948 0.2245119
3.729748 0.4282948 0.2245119
6.374593 0.4282948 0.2245119
0 0.7474945 0.2245119
0.07076883 0.7474945 0.2245119
0.2245119 0.7474945 0.2245119
0.4282948 0.7474945 0.2245119
0.7474945 0.7474945 0.2245119
1.27456 0.7474945 0.2245119
2.181521 0.7474945 0.2245119
3.729748 0.7474945 0.2245119
6.374593 0.7474945 0.2245119
0 1.27456 0.2245119
0.07076883 1.27456 0.2245119
0.2245119 1.27456 0.2245119
0.4282948 1.27456 0.2245119
0.7474945 1.27456 0.2245119
1.27456 1.27456 0.2245119
2.181521 1.27456 0.2245119
3.729748 1.27456 0.2245119
6.374593 1.27456 0.2245119
0 2.181521 0.2245119
0.07076883 2.181521 0.2245119
0.2245119 2.181521 0.2245119
0.4282948 2.181521 0.2245119
0.7474945 2.181521 0.2245119
1.27456 2.181521 0.2245119
2.181521 2.181521 0.2245119
3.729748 2.181521 0.2245119
6.374593 2.181521 0.2245119
0 3.729748 0.2245119
0.07076883 3.729748 0.2245119
0.2245119 3.729748 0.2245119
0.4282948 3.729748 0.2245119
0.7474945 3.729748 0.2245119
1.27456 3.729748 0.2245119
2.181521 3.729748 0.2245119
3.729748 3.729748 0.2245119
6.374593 3.729748 0.2245119
0 6.374593 0.2245119
0.07076883 6.374593 0.2245119
0.2245119 6.374593 0.2245119
0.4282948 6.374593 0.2245119
0.7474945 6.374593 0.2245119
1.27456 6.374593 0.2245119
2.181521 6.374593 0.2245119
3.729748 6.374593 0.2245119
6.374593 6.374593 0.2245119
0 0 0.4282948
0.07076883 0 0.4282948
0.2245119 0 0.4282948
0.4282948 0 0.4282948
0.7474945 0 0.4282948
1.27456 0 0.4282948
2.181521 0 0.4282948
3.729748 0 0.4282948
6.374593 0 0.4282948
0 0.07076883 0.4282948
0.07076883 0.07076883 0.4282948
0.2245119 0.07076883 0.4282948
0.4282948 0.07076883 0.4282948
0.7474945 0.07076883 0.4282948
1.27456 0.07076883 0.4282948
2.181521 0.07076883 0.4282948
3.729748 0.07076883 0.4282948
6.374593 0.07076883 0.4282948
0 0.2245119 0.4282948
0.07076883 0.2245119 0.4282948
0.2245119 0.2245119 0.4282948
0.4282948 0.2245119 0.4282948
0.7474945 0.2245119 0.4282948
1.27456 0.2245119 0.4282948
2.181521 0.2245119 0.4282948
3.729748 0.2245119 0.4282948
6.374593 0.2245119 0.4282948
0 0.4282948 0.4282948
0.07076883 0.4282948 0.4282948
0.2245119 0.4282948 0.4282948
0.4282948 0.4282948 0.4282948
0.7474945 0.4282948 0.4282948
1.27456 0.4282948 0.4282948
2.181521 0.4282948 0.4282948
3.729748 0.4282948 0.4282948
6.374593 0.4282948 0.4282948
0 0.7474945 0.4282948
0.07076883 0.7474945 0.4282948
0.2245119 0.7474945 0.4282948
0.4282948 0.7474945 0.4282948
0.7474945 0.7474945 0.4282948
1.27456 0.7474945 0.4282948
2.181521 0.7474945 0.4282948
3.729748 0.7474945 0.4282948
6.374593 0.7474945 0.4282948
0 1.27456 0.4282948
0.07076883 1.27456 0.4282948
0.2245119 1.27456 0.4282948
0.4282948 1.27456 0.4282948
0.7474945 1.27456 0.4282948
1.27456 1.27456 0.4282948
2.181521 1.27456 0.4282948
3.729748 1.27456 0.4282948
6.374593 1.27456 0.4282948
0 2.181521 0.4282948
0.07076883 2.181521 0.4282948
0.2245119 2.181521 0.4282948
0.4282948 2.181521 0.4282948
0.7474945 2.181521 0.4282948
1.27456 2.181521 0.4282948
2.181521 2.181521 0.4282948
3.729748 2.181521 0.4282948
6.374593 2.181521 0.4282948
0 3.729748 0.4282948
0.07076883 3.729748 0.4282948
0.2245119 3.729748 0.4282948
0.4282948 3.729748 0.4282948
0.7474945 3.729748 0.4282948
1.27456 3.729748 0.4282948
2.181521 3.729748 0.4282948
3.729748 3.729748 0.4282948
6.374593 3.729748 0.4282948
0 6.374593 0.4282948
0.07076883 6.374593 0.4282948
0.2245119 6.374593 0.4282948
0.4282948 6.374593 0.4282948
0.7474945 6.374593 0.4282948
1.27456 6.374593 0.4282948
2.181521 6.374593 0.4282948
3.729748 6.374593 0.4282948
6.374593 6.374593 0.4282948
0 0 0.7474945
0.07076883 0 0.7474945
0.2245119 0 0.7474945
0.4282948 0 0.7474945
0.7474945 0 0.7474945
1.27456 0 0.7474945
2.181521 0 0.7474945
3.729748 0 0.7474945
6.374593 0 0.7474945
0 0.07076883 0.7474945
0.07076883 0.07076883 0.7474945
0.2245119 0.07076883 0.7474945
0.4282948 0.07076883 0.7474945
0.7474945 0.07076883 0.7474945
1.27456 0.07076883 0.7474945
2.181521 0.07076883 0.7474945
3.729748 0.07076883 0.7474945
6.374593 0.07076883 0.7474945
0 0.2245119 0.7474945
0.07076883 0.2245119 0.7474945
0.2245119 0.2245119 0.7474945
0.4282948 0.2245119 0.7474945
0.7474945 0.2245119 0.7474945
1.27456 0.2245119 0.7474945
2.181521 0.2245119 0.7474945
3.729748 0.2245119 0.7474945
6.374593 0.2245119 0.7474945
0 0.4282948 0.7474945
0.07076883 0.4282948 0.7474945
0.2245119 0.4282948 0.7474945
0.4282948 0.4282948 0.7474945
0.7474945 0.4282948 0.7474945
1.27456 0.4282948 0.7474945
2.181521 0.4282948 0.7474945
3.729748 0.4282948 0.7474945
6.374593 0.4282948 0.7474945
0 0.7474945 0.7474945
0.07076883 0.7474945 0.7474945
0.2245119 0.7474945 0.7474945
0.4282948 0.7474945 0.7474945
0.7474945 0.7474945 0.7474945
1.27456 0.7474945 0.7474945
2.181521 0.7474945 0.7474945
3.729748 0.7474945 0.7474945
6.374593 0.7474945 0.7474945
0 1.27456 0.7474945
0.07076883 1.27456 0.7474945
0.2245119 1.27456 0.7474945
0.4282948 1.27456 0.7474945
0.7474945 1.27456 0.7474945
1.27456 1.27456 0.7474945
2.181521 1.27456 0.7474945
3.729748 1.27456 0.7474945
6.374593 1.27456 0.7474945
0 2.181521 0.7474945
0.07076883 2.181521 0.7474945
0.2245119 2.181521 0.7474945
0.4282948 2.181521 0.7474945
0.7474945 2.181521 0.7474945
1.27456 2.181521 0.7474945
2.181521 2.181521 0.7474945
3.729748 2.181521 0.7474945
6.374593 2.181521 0.7474945
0 3.729748 0.7474945
0.07076883 3.729748 0.7474945
0.2245119 3.729748 0.7474945
0.4282948 3.729748 0.7474945
0.7474945 3.729748 0.7474945
1.27456 3.729748 0.7474945
2.181521 3.729748 0.7474945
3.729748 3.729748 0.7474945
6.374593 3.729748 0.7474945
0 6.374593 0.7474945
0.07076883 6.374593 0.7474945
0.2245119 6.374593 0.7474945
0.4282948 6.374593 0.7474945
0.7474945 6.374593 0.7474945
1.27456 6.374593 0.7474945
2.181521 6.374593 0.7474945
3.729748 6.374593 0.7474945
6.374593 6.374593 0.7474945
0 0 1.27456
0.07076883 0 1.27456
0.2245119 0 1.27456
0.4282948 0 1.27456
0.7474945 0 1.27456
1.27456 0 1.27456
2.181521 0 1.27456
3.729748 0 1.27456
6.374593 0 1.27456
0 0.07076883 1.27456
0.07076883 0.07076883 1.27456
0.2245119 0.07076883 1.27456
0.4282948 0.07076883 1.27456
0.7474945 0.07076883 1.27456
1.27456 0.07076883 1.27456
2.181521 0.07076883 1.27456
3.729748 0.07076883 1.27456
6.374593 0.07076883 1.27456
0 0.2245119 1.27456
0.07076883 0.2245119 1.27456
0.2245119 0.2245119 1.27456
0.4282948 0.2245119 1.27456
0.7474945 0.2245119 1.27456
1.27456 0.2245119 1.27456
2.181521 0.2245119 1.27456
3.729748 0.2245119 1.27456
6.374593 0.2245119 1.27456
0 0.4282948 1.27456
0.07076883 0.4282948 1.27456
0.2245119 0.4282948 1.27456
0.4282948 0.4282948 1.27456
0.7474945 0.4282948 1.27456
1.27456 0.4282948 1.27456
2.181521 0.4282948 1.27456
3.729748 0.4282948 1.27456
6.374593 0.4282948 1.27456
0 0.7474945 1.27456
0.07076883 0.7474945 1.27456
0.2245119 0.7474945 1.27456
0.4282948 0.7474945 1.27456
0.7474945 0.7474945 1.27456
1.27456 0.7474945 1.27456
2.181521 0.7474945 1.27456
3.729748 0.7474945 1.27456
6.374593 0.7474945 1.27456
0 1.27456 1.27456
0.07076883 1.27456 1.27456
0.2245119 1.27456 1.27456
0.4282948 1.27456 1.27456
0.7474945 1.27456 1.27456
1.27456 1.27456 1.27456
2.181521 1.27456 1.27456
3.729748 1.27456 1.27456
6.374593 1.27456 1.27456
0 2.181521 1.27456
0.07076883 2.181521 1.27456
0.2245119 2.181521 1.27456
0.4282948 2.181521 1.27456
0.7474945 2.181521 1.27456
1.27456 2.181521 1.27456
2.181521 2.181521 1.27456
3.729748 2.181521 1.27456
6.374593 2.181521 1.27456
0 3.729748 1.27456
0.07076883 3.729748 1.27456
0.2245119 3.729748 1.27456
0.4282948 3.729748 1.27456
0.7474945 3.729748 1.27456
1.27456 3.729748 1.27456
2.181521 3.729748 1.27456
3.729748 3.729748 1.27456
6.374593 3.729748 1.27456
0 6.374593 1.27456
0.07076883 6.374593 1.27456
0.2245119 6.374593 1.27456
0.4282948 6.374593 1.27456
0.7474945 6.374593 1.27456
1.27456 6.374593 1.27456
2.181521 6.374593 1.27456
3.729748 6.374593 1.27456
6.374593 6.374593 1.27456
0 0 2.181521
0.07076883 0 2.181521
0.2245119 0 2.181521
0.4282948 0 2.181521
0.7474945 0 2.181521
1.27456 0 2.181521
2.181521 0 2.181521
3.729748 0 2.181521
6.374593 0 2.181521
0 0.07076883 2.181521
0.07076883 0.07076883 2.181521
0.2245119 0.07076883 2.181521
0.4282948 0.07076883 2.181521
0.7474945 0.07076883 2.181521
1.27456 0.07076883 2.181521
2.181521 0.07076883 2.181521
3.729748 0.07076883 2.181521
6.374593 0.07076883 2.181521
0 0.2245119 2.181521
0.07076883 0.2245119 2.181521
0.2245119 0.2245119 2.181521
0.4282948 0.2245119 2.181521
0.7474945 0.2245119 2.181521
1.27456 0.2245119 2.181521
2.181521 0.2245119 2.181521
3.729748 0.2245119 2.181521
6.374593 0.2245119 2.181521
0 0.4282948 2.181521
0.07076883 0.4282948 2.181521
0.2245119 0.4282948 2.181521
0.4282948 0.4282948 2.181521
0.7474945 0.4282948 2.181521
1.27456 0.4282948 2.181521
2.181521 0.4282948 2.181521
3.729748 0.4282948 2.181521
6.374593 0.4282948 2.181521
0 0.7474945 2.181521
0.07076883 0.7474945 2.181521
0.2245119 0.7474945 2.181521
0.4282948 0.7474945 2.181521
0.7474945 0.7474945 2.181521
1.27456 0.7474945 2.181521
2.181521 0.7474945 2.181521
3.729748 0.7474945 2.181521
6.374593 0.7474945 2.181521
0 1.27456 2.181521
0.07076883 1.27456 2.181521
0.2245119 1.27456 2.181521
0.4282948 1.27456 2.181521
0.7474945 1.27456 2.181521
1.27456 1.27456 2.181521
2.181521 1.27456 2.181521
3.729748 1.27456 2.181521
6.374593 1.27456 2.181521
0 2.181521 2.181521
0.07076883 2.181521 2.181521
0.2245119 2.181521 2.181521
0.4282948 2.181521 2.181521
0.7474945 2.181521 2.181521
1.27456 2.181521 2.181521
2.181521 2.181521 2.181521
3.729748 2.181521 2.181521
6.374593 2.181521 2.181521
0 3.729748 2.181521
0.07076883 3.729748 2.181521
0.2245119 3.729748 2.181521
0.4282948 3.729748 2.181521
0.7474945 3.729748 2.181521
1.27456 3.729748 2.181521
2.181521 3.729748 2.181521
3.729748 3.729748 2.181521
6.374593 3.729748 2.181521
0 6.374593 2.181521
0.07076883 6.374593 2.181521
0.2245119 6.374593 2.181521
0.4282948 6.374593 2.181521
0.7474945 6.374593 2.181521
1.27456 6.374593 2.181521
2.181521 6.374593 2.181521
3.729748 6.374593 2.181521
6.374593 6.374593 2.181521
0 0 3.729748
0.07076883 0 3.729748
0.2245119 0 3.729748
0.4282948 0 3.729748
0.7474945 0 3.729748
1.27456 0 3.729748
2.181521 0 3.729748
3.729748 0 3.729748
6.374593 0 3.729748
0 0.07076883 3.729748
0.07076883 0.07076883 3.729748
0.2245119 0.07076883 3.729748
0.4282948 0.07076883 3.729748
0.7474945 0.07076883 3.729748
1.27456 0.07076883 3.729748
2.181521 0.07076883 3.729748
3.729748 0.07076883 3.729748
6.374593 0.07076883 3.729748
0 0.2245119 3.729748
0.07076883 0.2245119 3.729748
0.2245119 0.2245119 3.729748
0.4282948 0.2245119 3.729748
0.7474945 0.2245119 3.729748
1.27456 0.2245119 3.729748
2.181521 0.2245119 3.729748
3.729748 0.2245119 3.729748
6.374593 0.2245119 3.729748
0 0.4282948 3.729748
0.07076883 0.4282948 3.729748
0.2245119 0.4282948 3.729748
0.4282948 0.4282948 3.729748
0.7474945 0.4282948 3.729748
1.27456 0.4282948 3.729748
2.181521 0.4282948 3.729748
3.729748 0.4282948 3.729748
6.374593 0.4282948 3.729748
0 0.7474945 3.729748
0.07076883 0.7474945 3.729748
0.2245119 0.7474945 3.729748
0.4282948 0.7474945 3.729748
0.7474945 0.7474945 3.729748
1.27456 0.7474945 3.729748
2.181521 0.7474945 3.729748
3.729748 0.7474945 3.729748
6.374593 0.7474945 3.729748
0 1.27456 3.729748
0.07076883 1.27456 3.729748
0.2245119 1.27456 3.729748
0.4282948 1.27456 3.729748
0.7474945 1.27456 3.729748
1.27456 1.27456 3.729748
2.181521 1.27456 3.729748
3.729748 1.27456 3.729748
6.374593 1.27456 3.729748
0 2.181521 3.729748
0.07076883 2.181521 3.729748
0.2245119 2.181521 3.729748
0.4282948 2.181521 3.729748
0.7474945 2.181521 3.729748
1.27456 2.181521 3.729748
2.181521 2.181521 3.729748
3.729748 2.181521 3.729748
6.374593 2.181521 3.729748
0 3.729748 3.729748
0.07076883 3.729748 3.729748
0.2245119 3.729748 3.729748
0.4282948 3.729748 3.729748
0.7474945 3.729748 3.729748
1.27456 3.729748 3.729748
2.181521 3.729748 3.729748
3.729748 3.729748 3.729748
6.374593 3.729748 3.729748
0 6.374593 3.729748
0.07076883 6.374593 3.729748
0.2245119 6.374593 3.729748
0.4282948 6.374593 3.729748
0.7474945 6.374593 3.729748
1.27456 6.374593 3.729748
2.181521 6.374593 3.729748
3.729748 6.374593 3.729748
6.374593 6.374593 3.729748
0 0 6.374593
0.07076883 0 6.374593
0.2245119 0 6.374593
0.4282948 0 6.374593
0.7474945 0 6.374593
1.27456 0 6.374593
2.181521 0 6.374593
3.729748 0 6.374593
6.374593 0 6.374593
0 0.07076883 6.374593
0.07076883 0.07076883 6.374593
0.2245119 0.07076883 6.374593
0.4282948 0.07076883 6.374593
0.7474945 0.07076883 6.374593
1.27456 0.07076883 6.374593
2.181521 0.07076883 6.374593
3.729748 0.07076883 6.374593
6.374593 0.07076883 6.374593
0 0.2245119 6.374593
0.07076883 0.2245119 6.374593
0.2245119 0.2245119 6.374593
0.4282948 0.2245119 6.374593
0.7474945 0.2245119 6.374593
1.27456 0.2245119 6.374593
2.181521 0.2245119 6.374593
3.729748 0.2245119 6.374593
6.374593 0.2245119 6.374593
0 0.4282948 6.374593
0.07076883 0.4282948 6.374593
0.2245119 0.4282948 6.374593
0.4282948 0.4282948 6.374593
0.7474945 0.4282948 6.374593
1.27456 0.4282948 6.374593
2.181521 0.4282948 6.374593
3.729748 0.4282948 6.374593
6.374593 0.4282948 6.374593
0 0.7474945 6.374593
0.07076883 0.7474945 6.374593
0.2245119 0.7474945 6.374593
0.4282948 0.7474945 6.374593
0.7474945 0.7474945 6.374593
1.27456 0.7474945 6.374593
2.181521 0.7474945 6.374593
3.729748 0.7474945 6.374593
6.374593 0.7474945 6.374593
0 1.27456 6.374593
0.07076883 1.27456 6.374593
0.2245119 1.27456 6.374593
0.4282948 1.27456 6.374593
0.7474945 1.27456 6.374593
1.27456 1.27456 6.374593
2.181521 1.27456 6.374593
3.729748 1.27456 6.374593
6.374593 1.27456 6.374593
0 2.181521 6.374593
0.07076883 2.181521 6.374593
0.2245119 2.181521 6.374593
0.4282948 2.181521 6.374593
0.7474945 2.181521 6.374593
1.27456 2.181521 6.374593
2.181521 2.181521 6.374593
3.729748 2.181521 6.374593
6.374593 2.181521 6.374593
0 3.729748 6.374593
0.07076883 3.729748 6.374593
0.2245119 3.729748 6.374593
0.4282948 3.729748 6.374593
0.7474945 3.729748 6.374593
1.27456 3.729748 6.374593
2.181521 3.729748 6.374593
3.729748 3.729748 6.374593
6.374593 3.729748 6.374593
0 6.374593 6.374593
0.07076883 6.374593 6.374593
0.2245119 6.374593 6.374593
0.4282948 6.374593 6.374593
0.7474945 6.374593 6.374593
1.27456 6.374593 6.374593
2.181521 6.374593 6.374593
3.729748 6.374593 6.374593
6.374593 6.374593 6.374593
