Packages/com.unity.postprocessing/PostProcessing/Textures/Cubes/Unity Log to sRGB r1.cube
TITLE "Unity Log to sRGB r1"
LUT_3D_SIZE 5
DOMAIN_MIN 0 0 0
DOMAIN_MAX 1 1 1
0 0 0
0.2245119 0 0
0.7474945 0 0
2.181521 0 0
6.374593 0 0
0 0.2245119 0
0.2245119 0.2245119 0
0.7474945 0.2245119 0
2.181521 0.2245119 0
6.374593 0.2245119 0
0 0.7474945 0
0.2245119 0.7474945 0
0.7474945 0.7474945 0
2.181521 0.7474945 0
6.374593 0.7474945 0
0 2.181521 0
0.2245119 2.181521 0
0.7474945 2.181521 0
2.181521 2.181521 0
6.374593 2.181521 0
0 6.374593 0
0.2245119 6.374593 0
0.7474945 6.374593 0
2.181521 6.374593 0
6.374593 6.374593 0
0 0 0.2245119
0.2245119 0 0.2245119
0.7474945 0 0.2245119
2.181521 0 0.2245119
6.374593 0 0.2245119
0 0.2245119 0.2245119
0.2245119 0.2245119 0.2245119
0.7474945 0.2245119 0.2245119
2.181521 0.2245119 0.2245119
6.374593 0.2245119 0.2245119
0 0.7474945 0.2245119
0.2245119 0.7474945 0.2245119
0.7474945 0.7474945 0.2245119
2.181521 0.7474945 0.2245119
6.374593 0.7474945 0.2245119
0 2.181521 0.2245119
0.2245119 2.181521 0.2245119
0.7474945 2.181521 0.2245119
2.181521 2.181521 0.2245119
6.374593 2.181521 0.2245119
0 6.374593 0.2245119
0.2245119 6.374593 0.2245119
0.7474945 6.374593 0.2245119
2.181521 6.374593 0.2245119
6.374593 6.374593 0.2245119
0 0 0.7474945
0.2245119 0 0.7474945
0.7474945 0 0.7474945
2.181521 0 0.7474945
6.374593 0 0.7474945
0 0.2245119 0.7474945
0.2245119 0.2245119 0.7474945
0.7474945 0.2245119 0.7474945
2.181521 0.2245119 0.7474945
6.374593 0.2245119 0.7474945
0 0.7474945 0.7474945
0.2245119 0.7474945 0.7474945
0.7474945 0.7474945 0.7474945
2.181521 0.7474945 0.7474945
6.374593 0.7474945 0.7474945
0 2.181521 0.7474945
0.2245119 2.181521 0.7474945
0.7474945 2.181521 0.7474945
2.181521 2.181521 0.7474945
6.374593 2.181521 0.7474945
0 6.374593 0.7474945
0.2245119 6.374593 0.7474945
0.7474945 6.374593 0.7474945
2.181521 6.374593 0.7474945
6.374593 6.374593 0.7474945
0 0 2.181521
0.2245119 0 2.181521
0.7474945 0 2.181521
2.181521 0 2.181521
6.374593 0 2.181521
0 0.2245119 2.181521
0.2245119 0.2245119 2.181521
0.7474945 0.2245119 2.181521
2.181521 0.2245119 2.181521
6.374593 0.2245119 2.181521
0 0.7474945 2.181521
0.2245119 0.7474945 2.181521
0.7474945 0.7474945 2.181521
2.181521 0.7474945 2.181521
6.374593 0.7474945 2.181521
0 2.181521 2.181521
0.2245119 2.181521 2.181521
0.7474945 2.181521 2.181521
2.181521 2.181521 2.181521
6.374593 2.181521 2.181521
0 6.374593 2.181521
0.2245119 6.374593 2.181521
0.7474945 6.374593 2.181521
2.181521 6.374593 2.181521
6.374593 6.374593 2.181521
0 0 6.374593
0.2245119 0 6.374593
0.7474945 0 6.374593
2.181521 0 6.374593
6.374593 0 6.374593
0 0.2245119 6.374593
0.2245119 0.2245119 6.374593
0.7474945 0.2245119 6.374593
2.181521 0.2245119 6.374593
6.374593 0.2245119 6.374593
0 0.7474945 6.374593
0.2245119 0.7474945 6.374593
0.7474945 0.7474945 6.374593
2.181521 0.7474945 6.374593
6.374593 0.7474945 6.374593
0 2.181521 6.374593
0.2245119 2.181521 6.374593
0.7474945 2.181521 6.374593
2.181521 2.181521 6.374593
6.374593 2.181521 6.374593
0 6.374593 6.374593
0.2245119 6.374593 6.374593
0.7474945 6.374593 6.374593
2.181521 6.374593 6.374593
6.374593 6.374593 6.374593
