Packages/com.unity.postprocessing/PostProcessing/Textures/Cubes/Unity Log to sRGB r1.cube
TITLE "Unity Log to sRGB r1"
LUT_3D_SIZE 33
DOMAIN_MIN 0 0 0
DOMAIN_MAX 1 1 1
0 0 0
0 0 0
0 0 0
0.002268731 0 0
0.07076883 0 0
0.1119241 0 0
0.1475052 0 0
0.1846606 0 0
0.2245119 0 0
0.2679612 0 0
0.3158431 0 0
0.3689944 0 0
0.4282948 0 0
0.494694 0 0
0.5692344 0 0
0.6530715 0 0
0.7474945 0 0
0.8539475 0 0
0.974052 0 0
1.113885 0 0
1.27456 0 0
1.458117 0 0
1.667858 0 0
1.907556 0 0
2.181521 0 0
2.494678 0 0
2.852659 0 0
3.261896 0 0
3.729748 0 0
4.264621 0 0
4.876131 0 0
5.575266 0 0
6.374593 0 0
0 0 0
0 0 0
0 0 0
0.002268731 0 0
0.07076883 0 0
0.1119241 0 0
0.1475052 0 0
0.1846606 0 0
0.2245119 0 0
0.2679612 0 0
0.3158431 0 0
0.3689944 0 0
0.4282948 0 0
0.494694 0 0
0.5692344 0 0
0.6530715 0 0
0.7474945 0 0
0.8539475 0 0
0.974052 0 0
1.113885 0 0
1.27456 0 0
1.458117 0 0
1.667858 0 0
1.907556 0 0
2.181521 0 0
2.494678 0 0
2.852659 0 0
3.261896 0 0
3.729748 0 0
4.264621 0 0
4.876131 0 0
5.575266 0 0
6.374593 0 0
0 0 0
0 0 0
0 0 0
0.002268731 0 0
0.07076883 0 0
0.1119241 0 0
0.1475052 0 0
0.1846606 0 0
0.2245119 0 0
0.2679612 0 0
0.3158431 0 0
0.3689944 0 0
0.4282948 0 0
0.494694 0 0
0.5692344 0 0
0.6530715 0 0
0.7474945 0 0
0.8539475 0 0
0.974052 0 0
1.113885 0 0
1.27456 0 0
1.458117 0 0
1.667858 0 0
1.907556 0 0
2.181521 0 0
2.494678 0 0
2.852659 0 0
3.261896 0 0
3.729748 0 0
4.264621 0 0
4.876131 0 0
5.575266 0 0
6.374593 0 0
0 0.002268731 0
0 0.002268731 0
0 0.002268731 0
0.002268731 0.002268731 0
0.07076883 0.002268731 0
0.1119241 0.002268731 0
0.1475052 0.002268731 0
0.1846606 0.002268731 0
0.2245119 0.002268731 0
0.2679612 0.002268731 0
0.3158431 0.002268731 0
0.3689944 0.002268731 0
0.4282948 0.002268731 0
0.494694 0.002268731 0
0.5692344 0.002268731 0
0.6530715 0.002268731 0
0.7474945 0.002268731 0
0.8539475 0.002268731 0
0.974052 0.002268731 0
1.113885 0.002268731 0
1.27456 0.002268731 0
1.458117 0.002268731 0
1.667858 0.002268731 0
1.907556 0.002268731 0
2.181521 0.002268731 0
2.494678 0.002268731 0
2.852659 0.002268731 0
3.261896 0.002268731 0
3.729748 0.002268731 0
4.264621 0.002268731 0
4.876131 0.002268731 0
5.575266 0.002268731 0
6.374593 0.002268731 0
0 0.07076883 0
0 0.07076883 0
0 0.07076883 0
0.002268731 0.07076883 0
0.07076883 0.07076883 0
0.1119241 0.07076883 0
0.1475052 0.07076883 0
0.1846606 0.07076883 0
0.2245119 0.07076883 0
0.2679612 0.07076883 0
0.3158431 0.07076883 0
0.3689944 0.07076883 0
0.4282948 0.07076883 0
0.494694 0.07076883 0
0.5692344 0.07076883 0
0.6530715 0.07076883 0
0.7474945 0.07076883 0
0.8539475 0.07076883 0
0.974052 0.07076883 0
1.113885 0.07076883 0
1.27456 0.07076883 0
1.458117 0.07076883 0
1.667858 0.07076883 0
1.907556 0.07076883 0
2.181521 0.07076883 0
2.494678 0.07076883 0
2.852659 0.07076883 0
3.261896 0.07076883 0
3.729748 0.07076883 0
4.264621 0.07076883 0
4.876131 0.07076883 0
5.575266 0.07076883 0
6.374593 0.07076883 0
0 0.1119241 0
0 0.1119241 0
0 0.1119241 0
0.002268731 0.1119241 0
0.07076883 0.1119241 0
0.1119241 0.1119241 0
0.1475052 0.1119241 0
0.1846606 0.1119241 0
0.2245119 0.1119241 0
0.2679612 0.1119241 0
0.3158431 0.1119241 0
0.3689944 0.1119241 0
0.4282948 0.1119241 0
0.494694 0.1119241 0
0.5692344 0.1119241 0
0.6530715 0.1119241 0
0.7474945 0.1119241 0
0.8539475 0.1119241 0
0.974052 0.1119241 0
1.113885 0.1119241 0
1.27456 0.1119241 0
1.458117 0.1119241 0
1.667858 0.1119241 0
1.907556 0.1119241 0
2.181521 0.1119241 0
2.494678 0.1119241 0
2.852659 0.1119241 0
3.261896 0.1119241 0
3.729748 0.1119241 0
4.264621 0.1119241 0
4.876131 0.1119241 0
5.575266 0.1119241 0
6.374593 0.1119241 0
0 0.1475052 0
0 0.1475052 0
0 0.1475052 0
0.002268731 0.1475052 0
0.07076883 0.1475052 0
0.1119241 0.1475052 0
0.1475052 0.1475052 0
0.1846606 0.1475052 0
0.2245119 0.1475052 0
0.2679612 0.1475052 0
0.3158431 0.1475052 0
0.3689944 0.1475052 0
0.4282948 0.1475052 0
0.494694 0.1475052 0
0.5692344 0.1475052 0
0.6530715 0.1475052 0
0.7474945 0.1475052 0
0.8539475 0.1475052 0
0.974052 0.1475052 0
1.113885 0.1475052 0
1.27456 0.1475052 0
1.458117 0.1475052 0
1.667858 0.1475052 0
1.907556 0.1475052 0
2.181521 0.1475052 0
2.494678 0.1475052 0
2.852659 0.1475052 0
3.261896 0.1475052 0
3.729748 0.1475052 0
4.264621 0.1475052 0
4.876131 0.1475052 0
5.575266 0.1475052 0
6.374593 0.1475052 0
0 0.1846606 0
0 0.1846606 0
0 0.1846606 0
0.002268731 0.1846606 0
0.07076883 0.1846606 0
0.1119241 0.1846606 0
0.1475052 0.1846606 0
0.1846606 0.1846606 0
0.2245119 0.1846606 0
0.2679612 0.1846606 0
0.3158431 0.1846606 0
0.3689944 0.1846606 0
0.4282948 0.1846606 0
0.494694 0.1846606 0
0.5692344 0.1846606 0
0.6530715 0.1846606 0
0.7474945 0.1846606 0
0.8539475 0.1846606 0
0.974052 0.1846606 0
1.113885 0.1846606 0
1.27456 0.1846606 0
1.458117 0.1846606 0
1.667858 0.1846606 0
1.907556 0.1846606 0
2.181521 0.1846606 0
2.494678 0.1846606 0
2.852659 0.1846606 0
3.261896 0.1846606 0
3.729748 0.1846606 0
4.264621 0.1846606 0
4.876131 0.1846606 0
5.575266 0.1846606 0
6.374593 0.1846606 0
0 0.2245119 0
0 0.2245119 0
0 0.2245119 0
0.002268731 0.2245119 0
0.07076883 0.2245119 0
0.1119241 0.2245119 0
0.1475052 0.2245119 0
0.1846606 0.2245119 0
0.2245119 0.2245119 0
0.2679612 0.2245119 0
0.3158431 0.2245119 0
0.3689944 0.2245119 0
0.4282948 0.2245119 0
0.494694 0.2245119 0
0.5692344 0.2245119 0
0.6530715 0.2245119 0
0.7474945 0.2245119 0
0.8539475 0.2245119 0
0.974052 0.2245119 0
1.113885 0.2245119 0
1.27456 0.2245119 0
1.458117 0.2245119 0
1.667858 0.2245119 0
1.907556 0.2245119 0
2.181521 0.2245119 0
2.494678 0.2245119 0
2.852659 0.2245119 0
3.261896 0.2245119 0
3.729748 0.2245119 0
4.264621 0.2245119 0
4.876131 0.2245119 0
5.575266 0.2245119 0
6.374593 0.2245119 0
0 0.2679612 0
0 0.2679612 0
0 0.2679612 0
0.002268731 0.2679612 0
0.07076883 0.2679612 0
0.1119241 0.2679612 0
0.1475052 0.2679612 0
0.1846606 0.2679612 0
0.2245119 0.2679612 0
0.2679612 0.2679612 0
0.3158431 0.2679612 0
0.3689944 0.2679612 0
0.4282948 0.2679612 0
0.494694 0.2679612 0
0.5692344 0.2679612 0
0.6530715 0.2679612 0
0.7474945 0.2679612 0
0.8539475 0.2679612 0
0.974052 0.2679612 0
1.113885 0.2679612 0
1.27456 0.2679612 0
1.458117 0.2679612 0
1.667858 0.2679612 0
1.907556 0.2679612 0
2.181521 0.2679612 0
2.494678 0.2679612 0
2.852659 0.2679612 0
3.261896 0.2679612 0
3.729748 0.2679612 0
4.264621 0.2679612 0
4.876131 0.2679612 0
5.575266 0.2679612 0
6.374593 0.2679612 0
0 0.3158431 0
0 0.3158431 0
0 0.3158431 0
0.002268731 0.3158431 0
0.07076883 0.3158431 0
0.1119241 0.3158431 0
0.1475052 0.3158431 0
0.1846606 0.3158431 0
0.2245119 0.3158431 0
0.2679612 0.3158431 0
0.3158431 0.3158431 0
0.3689944 0.3158431 0
0.4282948 0.3158431 0
0.494694 0.3158431 0
0.5692344 0.3158431 0
0.6530715 0.3158431 0
0.7474945 0.3158431 0
0.8539475 0.3158431 0
0.974052 0.3158431 0
1.113885 0.3158431 0
1.27456 0.3158431 0
1.458117 0.3158431 0
1.667858 0.3158431 0
1.907556 0.3158431 0
2.181521 0.3158431 0
2.494678 0.3158431 0
2.852659 0.3158431 0
3.261896 0.3158431 0
3.729748 0.3158431 0
4.264621 0.3158431 0
4.876131 0.3158431 0
5.575266 0.3158431 0
6.374593 0.3158431 0
0 0.3689944 0
0 0.3689944 0
0 0.3689944 0
0.002268731 0.3689944 0
0.07076883 0.3689944 0
0.1119241 0.3689944 0
0.1475052 0.3689944 0
0.1846606 0.3689944 0
0.2245119 0.3689944 0
0.2679612 0.3689944 0
0.3158431 0.3689944 0
0.3689944 0.3689944 0
0.4282948 0.3689944 0
0.494694 0.3689944 0
0.5692344 0.3689944 0
0.6530715 0.3689944 0
0.7474945 0.3689944 0
0.8539475 0.3689944 0
0.974052 0.3689944 0
1.113885 0.3689944 0
1.27456 0.3689944 0
1.458117 0.3689944 0
1.667858 0.3689944 0
1.907556 0.3689944 0
2.181521 0.3689944 0
2.494678 0.3689944 0
2.852659 0.3689944 0
3.261896 0.3689944 0
3.729748 0.3689944 0
4.264621 0.3689944 0
4.876131 0.3689944 0
5.575266 0.3689944 0
6.374593 0.3689944 0
0 0.4282948 0
0 0.4282948 0
0 0.4282948 0
0.002268731 0.4282948 0
0.07076883 0.4282948 0
0.1119241 0.4282948 0
0.1475052 0.4282948 0
0.1846606 0.4282948 0
0.2245119 0.4282948 0
0.2679612 0.4282948 0
0.3158431 0.4282948 0
0.3689944 0.4282948 0
0.4282948 0.4282948 0
0.494694 0.4282948 0
0.5692344 0.4282948 0
0.6530715 0.4282948 0
0.7474945 0.4282948 0
0.8539475 0.4282948 0
0.974052 0.4282948 0
1.113885 0.4282948 0
1.27456 0.4282948 0
1.458117 0.4282948 0
1.667858 0.4282948 0
1.907556 0.4282948 0
2.181521 0.4282948 0
2.494678 0.4282948 0
2.852659 0.4282948 0
3.261896 0.4282948 0
3.729748 0.4282948 0
4.264621 0.4282948 0
4.876131 0.4282948 0
5.575266 0.4282948 0
6.374593 0.4282948 0
0 0.494694 0
0 0.494694 0
0 0.494694 0
0.002268731 0.494694 0
0.07076883 0.494694 0
0.1119241 0.494694 0
0.1475052 0.494694 0
0.1846606 0.494694 0
0.2245119 0.494694 0
0.2679612 0.494694 0
0.3158431 0.494694 0
0.3689944 0.494694 0
0.4282948 0.494694 0
0.494694 0.494694 0
0.5692344 0.494694 0
0.6530715 0.494694 0
0.7474945 0.494694 0
0.8539475 0.494694 0
0.974052 0.494694 0
1.113885 0.494694 0
1.27456 0.494694 0
1.458117 0.494694 0
1.667858 0.494694 0
1.907556 0.494694 0
2.181521 0.494694 0
2.494678 0.494694 0
2.852659 0.494694 0
3.261896 0.494694 0
3.729748 0.494694 0
4.264621 0.494694 0
4.876131 0.494694 0
5.575266 0.494694 0
6.374593 0.494694 0
0 0.5692344 0
0 0.5692344 0
0 0.5692344 0
0.002268731 0.5692344 0
0.07076883 0.5692344 0
0.1119241 0.5692344 0
0.1475052 0.5692344 0
0.1846606 0.5692344 0
0.2245119 0.5692344 0
0.2679612 0.5692344 0
0.3158431 0.5692344 0
0.3689944 0.5692344 0
0.4282948 0.5692344 0
0.494694 0.5692344 0
0.5692344 0.5692344 0
0.6530715 0.5692344 0
0.7474945 0.5692344 0
0.8539475 0.5692344 0
0.974052 0.5692344 0
1.113885 0.5692344 0
1.27456 0.5692344 0
1.458117 0.5692344 0
1.667858 0.5692344 0
1.907556 0.5692344 0
2.181521 0.5692344 0
2.494678 0.5692344 0
2.852659 0.5692344 0
3.261896 0.5692344 0
3.729748 0.5692344 0
4.264621 0.5692344 0
4.876131 0.5692344 0
5.575266 0.5692344 0
6.374593 0.5692344 0
0 0.6530715 0
0 0.6530715 0
0 0.6530715 0
0.002268731 0.6530715 0
0.07076883 0.6530715 0
0.1119241 0.6530715 0
0.1475052 0.6530715 0
0.1846606 0.6530715 0
0.2245119 0.6530715 0
0.2679612 0.6530715 0
0.3158431 0.6530715 0
0.3689944 0.6530715 0
0.4282948 0.6530715 0
0.494694 0.6530715 0
0.5692344 0.6530715 0
0.6530715 0.6530715 0
0.7474945 0.6530715 0
0.8539475 0.6530715 0
0.974052 0.6530715 0
1.113885 0.6530715 0
1.27456 0.6530715 0
1.458117 0.6530715 0
1.667858 0.6530715 0
1.907556 0.6530715 0
2.181521 0.6530715 0
2.494678 0.6530715 0
2.852659 0.6530715 0
3.261896 0.6530715 0
3.729748 0.6530715 0
4.264621 0.6530715 0
4.876131 0.6530715 0
5.575266 0.6530715 0
6.374593 0.6530715 0
0 0.7474945 0
0 0.7474945 0
0 0.7474945 0
0.002268731 0.7474945 0
0.07076883 0.7474945 0
0.1119241 0.7474945 0
0.1475052 0.7474945 0
0.1846606 0.7474945 0
0.2245119 0.7474945 0
0.2679612 0.7474945 0
0.3158431 0.7474945 0
0.3689944 0.7474945 0
0.4282948 0.7474945 0
0.494694 0.7474945 0
0.5692344 0.7474945 0
0.6530715 0.7474945 0
0.7474945 0.7474945 0
0.8539475 0.7474945 0
0.974052 0.7474945 0
1.113885 0.7474945 0
1.27456 0.7474945 0
1.458117 0.7474945 0
1.667858 0.7474945 0
1.907556 0.7474945 0
2.181521 0.7474945 0
2.494678 0.7474945 0
2.852659 0.7474945 0
3.261896 0.7474945 0
3.729748 0.7474945 0
4.264621 0.7474945 0
4.876131 0.7474945 0
5.575266 0.7474945 0
6.374593 0.7474945 0
0 0.8539475 0
0 0.8539475 0
0 0.8539475 0
0.002268731 0.8539475 0
0.07076883 0.8539475 0
0.1119241 0.8539475 0
0.1475052 0.8539475 0
0.1846606 0.8539475 0
0.2245119 0.8539475 0
0.2679612 0.8539475 0
0.3158431 0.8539475 0
0.3689944 0.8539475 0
0.4282948 0.8539475 0
0.494694 0.8539475 0
0.5692344 0.8539475 0
0.6530715 0.8539475 0
0.7474945 0.8539475 0
0.8539475 0.8539475 0
0.974052 0.8539475 0
1.113885 0.8539475 0
1.27456 0.8539475 0
1.458117 0.8539475 0
1.667858 0.8539475 0
1.907556 0.8539475 0
2.181521 0.8539475 0
2.494678 0.8539475 0
2.852659 0.8539475 0
3.261896 0.8539475 0
3.729748 0.8539475 0
4.264621 0.8539475 0
4.876131 0.8539475 0
5.575266 0.8539475 0
6.374593 0.8539475 0
0 0.974052 0
0 0.974052 0
0 0.974052 0
0.002268731 0.974052 0
0.07076883 0.974052 0
0.1119241 0.974052 0
0.1475052 0.974052 0
0.1846606 0.974052 0
0.2245119 0.974052 0
0.2679612 0.974052 0
0.3158431 0.974052 0
0.3689944 0.974052 0
0.4282948 0.974052 0
0.494694 0.974052 0
0.5692344 0.974052 0
0.6530715 0.974052 0
0.7474945 0.974052 0
0.8539475 0.974052 0
0.974052 0.974052 0
1.113885 0.974052 0
1.27456 0.974052 0
1.458117 0.974052 0
1.667858 0.974052 0
1.907556 0.974052 0
2.181521 0.974052 0
2.494678 0.974052 0
2.852659 0.974052 0
3.261896 0.974052 0
3.729748 0.974052 0
4.264621 0.974052 0
4.876131 0.974052 0
5.575266 0.974052 0
6.374593 0.974052 0
0 1.113885 0
0 1.113885 0
0 1.113885 0
0.002268731 1.113885 0
0.07076883 1.113885 0
0.1119241 1.113885 0
0.1475052 1.113885 0
0.1846606 1.113885 0
0.2245119 1.113885 0
0.2679612 1.113885 0
0.3158431 1.113885 0
0.3689944 1.113885 0
0.4282948 1.113885 0
0.494694 1.113885 0
0.5692344 1.113885 0
0.6530715 1.113885 0
0.7474945 1.113885 0
0.8539475 1.113885 0
0.974052 1.113885 0
1.113885 1.113885 0
1.27456 1.113885 0
1.458117 1.113885 0
1.667858 1.113885 0
1.907556 1.113885 0
2.181521 1.113885 0
2.494678 1.113885 0
2.852659 1.113885 0
3.261896 1.113885 0
3.729748 1.113885 0
4.264621 1.113885 0
4.876131 1.113885 0
5.575266 1.113885 0
6.374593 1.113885 0
0 1.27456 0
0 1.27456 0
0 1.27456 0
0.002268731 1.27456 0
0.07076883 1.27456 0
0.1119241 1.27456 0
0.1475052 1.27456 0
0.1846606 1.27456 0
0.2245119 1.27456 0
0.2679612 1.27456 0
0.3158431 1.27456 0
0.3689944 1.27456 0
0.4282948 1.27456 0
0.494694 1.27456 0
0.5692344 1.27456 0
0.6530715 1.27456 0
0.7474945 1.27456 0
0.8539475 1.27456 0
0.974052 1.27456 0
1.113885 1.27456 0
1.27456 1.27456 0
1.458117 1.27456 0
1.667858 1.27456 0
1.907556 1.27456 0
2.181521 1.27456 0
2.494678 1.27456 0
2.852659 1.27456 0
3.261896 1.27456 0
3.729748 1.27456 0
4.264621 1.27456 0
4.876131 1.27456 0
5.575266 1.27456 0
6.374593 1.27456 0
0 1.458117 0
0 1.458117 0
0 1.458117 0
0.002268731 1.458117 0
0.07076883 1.458117 0
0.1119241 1.458117 0
0.1475052 1.458117 0
0.1846606 1.458117 0
0.2245119 1.458117 0
0.2679612 1.458117 0
0.3158431 1.458117 0
0.3689944 1.458117 0
0.4282948 1.458117 0
0.494694 1.458117 0
0.5692344 1.458117 0
0.6530715 1.458117 0
0.7474945 1.458117 0
0.8539475 1.458117 0
0.974052 1.458117 0
1.113885 1.458117 0
1.27456 1.458117 0
1.458117 1.458117 0
1.667858 1.458117 0
1.907556 1.458117 0
2.181521 1.458117 0
2.494678 1.458117 0
2.852659 1.458117 0
3.261896 1.458117 0
3.729748 1.458117 0
4.264621 1.458117 0
4.876131 1.458117 0
5.575266 1.458117 0
6.374593 1.458117 0
0 1.667858 0
0 1.667858 0
0 1.667858 0
0.002268731 1.667858 0
0.07076883 1.667858 0
0.1119241 1.667858 0
0.1475052 1.667858 0
0.1846606 1.667858 0
0.2245119 1.667858 0
0.2679612 1.667858 0
0.3158431 1.667858 0
0.3689944 1.667858 0
0.4282948 1.667858 0
0.494694 1.667858 0
0.5692344 1.667858 0
0.6530715 1.667858 0
0.7474945 1.667858 0
0.8539475 1.667858 0
0.974052 1.667858 0
1.113885 1.667858 0
1.27456 1.667858 0
1.458117 1.667858 0
1.667858 1.667858 0
1.907556 1.667858 0
2.181521 1.667858 0
2.494678 1.667858 0
2.852659 1.667858 0
3.261896 1.667858 0
3.729748 1.667858 0
4.264621 1.667858 0
4.876131 1.667858 0
5.575266 1.667858 0
6.374593 1.667858 0
0 1.907556 0
0 1.907556 0
0 1.907556 0
0.002268731 1.907556 0
0.07076883 1.907556 0
0.1119241 1.907556 0
0.1475052 1.907556 0
0.1846606 1.907556 0
0.2245119 1.907556 0
0.2679612 1.907556 0
0.3158431 1.907556 0
0.3689944 1.907556 0
0.4282948 1.907556 0
0.494694 1.907556 0
0.5692344 1.907556 0
0.6530715 1.907556 0
0.7474945 1.907556 0
0.8539475 1.907556 0
0.974052 1.907556 0
1.113885 1.907556 0
1.27456 1.907556 0
1.458117 1.907556 0
1.667858 1.907556 0
1.907556 1.907556 0
2.181521 1.907556 0
2.494678 1.907556 0
2.852659 1.907556 0
3.261896 1.907556 0
3.729748 1.907556 0
4.264621 1.907556 0
4.876131 1.907556 0
5.575266 1.907556 0
6.374593 1.907556 0
0 2.181521 0
0 2.181521 0
0 2.181521 0
0.002268731 2.181521 0
0.07076883 2.181521 0
0.1119241 2.181521 0
0.1475052 2.181521 0
0.1846606 2.181521 0
0.2245119 2.181521 0
0.2679612 2.181521 0
0.3158431 2.181521 0
0.3689944 2.181521 0
0.4282948 2.181521 0
0.494694 2.181521 0
0.5692344 2.181521 0
0.6530715 2.181521 0
0.7474945 2.181521 0
0.8539475 2.181521 0
0.974052 2.181521 0
1.113885 2.181521 0
1.27456 2.181521 0
1.458117 2.181521 0
1.667858 2.181521 0
1.907556 2.181521 0
2.181521 2.181521 0
2.494678 2.181521 0
2.852659 2.181521 0
3.261896 2.181521 0
3.729748 2.181521 0
4.264621 2.181521 0
4.876131 2.181521 0
5.575266 2.181521 0
6.374593 2.181521 0
0 2.494678 0
0 2.494678 0
0 2.494678 0
0.002268731 2.494678 0
0.07076883 2.494678 0
0.1119241 2.494678 0
0.1475052 2.494678 0
0.1846606 2.494678 0
0.2245119 2.494678 0
0.2679612 2.494678 0
0.3158431 2.494678 0
0.3689944 2.494678 0
0.4282948 2.494678 0
0.494694 2.494678 0
0.5692344 2.494678 0
0.6530715 2.494678 0
0.7474945 2.494678 0
0.8539475 2.494678 0
0.974052 2.494678 0
1.113885 2.494678 0
1.27456 2.494678 0
1.458117 2.494678 0
1.667858 2.494678 0
1.907556 2.494678 0
2.181521 2.494678 0
2.494678 2.494678 0
2.852659 2.494678 0
3.261896 2.494678 0
3.729748 2.494678 0
4.264621 2.494678 0
4.876131 2.494678 0
5.575266 2.494678 0
6.374593 2.494678 0
0 2.852659 0
0 2.852659 0
0 2.852659 0
0.002268731 2.852659 0
0.07076883 2.852659 0
0.1119241 2.852659 0
0.1475052 2.852659 0
0.1846606 2.852659 0
0.2245119 2.852659 0
0.2679612 2.852659 0
0.3158431 2.852659 0
0.3689944 2.852659 0
0.4282948 2.852659 0
0.494694 2.852659 0
0.5692344 2.852659 0
0.6530715 2.852659 0
0.7474945 2.852659 0
0.8539475 2.852659 0
0.974052 2.852659 0
1.113885 2.852659 0
1.27456 2.852659 0
1.458117 2.852659 0
1.667858 2.852659 0
1.907556 2.852659 0
2.181521 2.852659 0
2.494678 2.852659 0
2.852659 2.852659 0
3.261896 2.852659 0
3.729748 2.852659 0
4.264621 2.852659 0
4.876131 2.852659 0
5.575266 2.852659 0
6.374593 2.852659 0
0 3.261896 0
0 3.261896 0
0 3.261896 0
0.002268731 3.261896 0
0.07076883 3.261896 0
0.1119241 3.261896 0
0.1475052 3.261896 0
0.1846606 3.261896 0
0.2245119 3.261896 0
